<?xml version="1.0" encoding="UTF-8"?>
<map version="1.10" tiledversion="1.10.2" orientation="orthogonal" renderorder="right-down" width="30" height="20" tilewidth="8" tileheight="8" infinite="1" nextlayerid="5" nextobjectid="52">
 <tileset firstgid="1" name="thirteenTile" tilewidth="8" tileheight="8" tilecount="4096" columns="64">
  <image source="thirteenTile.png" width="512" height="512"/>
 </tileset>
 <layer id="2" name="Background" width="30" height="20">
  <data encoding="csv">
   <chunk x="80" y="-80" width="16" height="16">
0,0,0,0,0,0,0,0,0,0,0,0,0,0,0,0,
0,0,0,0,0,0,0,0,0,0,0,0,0,0,0,0,
0,0,0,0,0,0,0,0,0,0,0,0,0,0,0,0,
0,0,0,0,0,0,0,0,0,0,0,0,0,0,0,0,
0,0,0,0,0,0,0,0,0,0,0,0,0,0,0,0,
0,0,0,0,0,0,0,0,0,0,0,0,0,0,0,0,
0,0,0,0,0,0,0,0,0,0,0,0,0,0,0,0,
0,0,0,0,0,0,0,0,0,0,0,0,0,0,0,0,
0,0,0,0,0,0,0,0,0,0,0,0,0,0,0,0,
0,0,0,0,0,0,0,0,0,0,0,0,0,0,0,0,
0,0,0,0,0,0,0,0,0,66,66,66,66,66,66,66,
0,0,0,0,0,0,0,0,66,66,66,66,66,66,66,66,
0,0,0,0,0,0,0,0,66,66,66,66,66,66,66,66,
0,0,0,0,0,0,0,0,66,66,66,66,66,66,66,66,
0,0,0,0,0,0,0,0,66,66,66,66,66,66,66,66,
0,0,0,0,0,0,0,0,66,66,66,66,66,66,66,66
</chunk>
   <chunk x="96" y="-80" width="16" height="16">
0,0,0,0,0,0,0,0,0,0,0,0,0,0,0,0,
0,0,0,0,0,0,0,0,0,0,0,0,0,0,0,0,
0,0,0,0,0,0,0,0,0,0,0,0,0,0,0,0,
0,0,0,0,0,0,0,0,0,0,0,0,0,0,0,0,
0,0,0,0,0,0,0,0,0,0,0,0,0,0,0,0,
0,0,0,0,0,0,0,0,0,0,0,0,0,0,0,0,
0,0,0,0,0,0,0,0,0,0,0,0,0,0,0,0,
0,0,0,0,0,0,0,0,0,0,0,0,0,0,0,0,
0,0,0,0,0,0,0,0,0,0,0,0,0,0,0,0,
0,0,0,0,0,0,0,0,0,0,0,0,0,0,0,0,
66,66,66,66,0,0,0,0,0,0,0,0,0,0,0,0,
66,66,66,66,0,0,0,0,0,0,0,0,0,0,0,0,
66,66,66,66,0,0,0,0,0,0,0,0,0,0,0,0,
66,66,66,66,0,0,0,0,0,0,0,0,0,0,0,0,
66,66,66,66,0,0,0,0,0,0,0,0,0,0,0,0,
66,66,66,66,0,0,0,0,0,0,0,0,0,0,0,0
</chunk>
   <chunk x="144" y="-80" width="16" height="16">
0,0,0,0,0,0,0,0,0,0,0,0,0,0,0,0,
0,0,0,0,0,0,0,0,0,0,0,0,0,0,0,0,
0,0,0,0,0,0,0,0,0,0,0,0,0,0,0,0,
0,0,0,0,0,0,0,0,0,0,0,0,0,0,0,0,
0,0,0,0,0,0,0,0,0,0,0,0,0,0,0,0,
0,0,0,0,0,0,0,0,0,0,0,0,0,0,0,0,
0,0,0,0,0,0,0,0,0,0,0,0,0,0,0,0,
0,0,0,0,0,0,0,0,0,0,0,0,0,0,0,0,
0,0,0,0,0,0,0,0,0,0,0,0,0,0,0,0,
0,0,0,0,0,0,0,0,0,0,0,0,0,0,0,0,
0,0,0,0,0,0,0,0,0,0,0,0,0,0,0,0,
0,0,0,0,0,0,0,0,0,0,0,0,0,0,0,0,
0,0,0,0,0,0,0,0,0,0,0,0,0,0,0,0,
0,0,0,0,0,0,0,0,0,0,0,0,0,0,0,0,
0,0,0,0,0,0,0,66,66,66,66,66,0,0,0,0,
0,0,0,0,0,0,0,66,66,66,66,66,0,0,0,0
</chunk>
   <chunk x="0" y="-64" width="16" height="16">
0,0,0,0,0,0,0,0,0,0,0,0,0,0,0,0,
0,0,0,0,0,0,0,0,0,0,0,0,0,0,0,0,
0,0,0,0,0,0,0,0,0,0,0,0,0,0,0,0,
0,0,0,0,0,0,0,0,0,0,0,0,0,0,0,0,
0,0,0,0,0,0,0,0,0,0,0,0,0,0,0,0,
0,0,0,0,0,0,0,0,0,0,0,0,0,0,0,0,
0,0,0,0,0,0,0,0,0,0,0,0,0,0,0,0,
0,0,0,0,0,0,0,0,0,0,0,0,0,0,66,778,
0,0,0,0,0,0,0,0,0,0,0,0,0,0,66,778,
0,0,0,0,0,0,0,0,0,0,0,0,0,0,66,778,
0,0,0,0,0,0,0,0,0,0,0,0,0,0,66,778,
0,0,0,0,0,0,0,0,0,0,0,0,0,0,66,778,
0,0,0,0,0,0,0,0,0,0,0,0,0,0,66,778,
0,0,0,0,0,0,0,0,0,0,0,0,0,0,66,778,
0,0,0,0,0,0,0,0,0,0,0,0,0,0,66,778,
0,0,0,0,0,0,0,0,0,0,0,0,0,0,66,778
</chunk>
   <chunk x="16" y="-64" width="16" height="16">
0,0,0,0,0,0,0,0,0,0,0,0,0,0,0,0,
0,0,0,0,0,0,0,0,0,0,0,0,0,0,0,0,
0,0,0,0,0,0,0,0,0,0,0,0,0,0,0,0,
0,0,0,0,0,0,0,0,0,0,0,0,0,0,0,0,
0,0,0,0,0,0,0,0,0,0,0,0,0,0,0,0,
0,0,0,0,0,0,0,0,0,0,0,0,0,0,0,0,
0,0,0,0,0,0,0,0,0,0,0,0,0,0,0,0,
66,66,66,66,66,66,776,66,0,0,0,0,0,0,0,0,
66,66,66,66,66,66,776,66,0,0,0,0,0,0,0,0,
66,66,66,66,66,66,776,66,0,0,0,0,0,0,0,0,
66,66,66,66,66,66,776,66,0,0,0,0,0,0,0,0,
66,66,66,66,66,66,776,66,0,0,0,0,0,0,0,0,
66,66,66,66,66,66,776,66,0,0,0,0,0,0,0,0,
66,66,66,66,66,66,776,66,0,0,0,0,0,0,0,0,
66,66,66,66,66,66,776,66,0,0,0,0,0,0,0,0,
66,66,66,66,66,66,776,66,0,0,0,0,0,0,0,0
</chunk>
   <chunk x="80" y="-64" width="16" height="16">
0,0,0,0,0,0,0,0,66,66,66,66,66,66,66,66,
0,0,0,0,0,0,0,0,66,66,66,66,66,66,66,66,
0,0,0,0,0,0,0,0,66,66,66,66,66,66,66,66,
0,0,0,0,0,0,0,0,66,66,66,66,66,66,66,66,
0,0,0,0,0,0,0,0,66,66,66,66,66,66,66,66,
0,0,0,0,0,0,0,0,66,66,778,66,66,66,66,66,
0,0,0,0,0,0,0,0,66,66,778,66,66,66,66,66,
0,0,0,0,0,0,0,0,66,66,778,66,66,66,66,66,
0,0,0,0,0,0,0,0,66,66,778,66,66,66,66,66,
0,0,0,0,0,0,0,0,66,66,778,66,66,66,66,66,
0,0,0,0,0,0,0,0,66,713,906,713,713,713,713,713,
0,0,0,0,0,0,0,0,66,66,778,66,66,66,66,66,
0,0,0,0,0,0,0,0,66,66,778,66,66,66,66,66,
0,0,0,0,0,0,0,0,66,66,778,66,66,66,66,66,
0,0,0,0,0,0,0,0,66,66,778,66,66,66,66,66,
0,0,0,0,0,0,0,0,66,66,778,66,66,66,66,66
</chunk>
   <chunk x="96" y="-64" width="16" height="16">
66,66,66,66,0,0,0,0,0,0,0,0,0,0,0,0,
66,66,66,66,0,0,0,0,0,0,0,0,0,0,0,0,
66,66,66,66,0,0,0,0,0,0,0,0,0,0,0,0,
66,66,66,66,0,0,0,0,0,0,0,0,0,0,0,0,
66,66,66,66,0,0,0,0,0,0,0,0,0,0,0,0,
66,776,66,66,66,66,66,66,66,66,66,66,66,66,66,66,
66,776,66,66,66,66,66,778,66,66,66,66,66,66,1226,66,
66,776,66,66,66,66,66,778,66,66,66,66,66,66,1288,66,
66,776,66,66,66,66,66,778,66,66,66,66,66,66,1288,66,
66,776,66,66,66,66,66,778,66,66,66,66,66,66,1288,66,
713,904,713,72,74,66,66,778,66,66,66,66,66,66,1288,66,
66,776,66,72,74,1160,1161,778,66,66,66,66,66,66,1288,66,
66,776,66,72,74,1162,1163,778,66,66,66,66,66,66,1288,66,
66,776,66,72,74,1224,1225,778,66,66,66,66,66,66,1288,66,
66,776,66,72,74,66,66,904,713,713,713,713,906,66,1288,66,
66,776,66,72,74,66,66,776,66,66,66,66,778,66,1290,66
</chunk>
   <chunk x="112" y="-64" width="16" height="16">
0,0,0,0,0,0,0,0,0,0,0,0,0,0,0,0,
0,0,0,0,0,0,0,0,0,0,0,0,0,0,0,0,
0,0,0,0,0,0,0,0,0,0,0,0,0,0,0,0,
0,0,0,0,0,0,0,0,0,0,0,0,0,0,0,0,
0,0,0,0,0,0,0,0,0,0,0,0,0,0,0,0,
66,66,66,66,66,66,66,66,66,66,66,66,66,66,66,66,
66,66,66,66,66,66,66,66,66,66,66,66,66,66,66,66,
66,66,66,66,66,66,66,66,66,66,66,66,66,66,66,66,
66,66,66,66,66,66,66,66,66,66,66,66,66,66,66,66,
66,66,66,66,66,66,66,66,66,66,66,66,66,66,66,66,
66,66,66,66,66,66,66,66,66,66,66,66,66,66,66,66,
66,66,66,66,66,66,66,66,66,66,66,66,66,66,66,66,
66,66,66,1290,66,1290,904,906,66,66,66,66,66,66,66,66,
66,66,8,9,139,9,139,10,66,66,66,66,66,66,66,66,
904,906,72,776,66,66,778,74,904,906,66,66,66,66,904,906,
1288,1288,72,776,66,66,778,74,1288,1288,66,66,66,66,1288,1288
</chunk>
   <chunk x="128" y="-64" width="16" height="16">
0,0,0,0,0,0,0,0,0,0,0,0,0,0,0,0,
0,0,0,0,0,0,0,0,0,0,0,0,0,0,0,0,
0,0,0,0,0,0,0,0,0,0,0,0,0,0,0,0,
0,0,0,0,0,0,0,0,0,0,0,0,0,0,0,0,
0,0,0,0,0,0,0,0,0,0,0,0,0,0,0,0,
66,66,66,0,0,0,0,0,0,0,0,0,0,0,0,0,
66,66,66,66,66,66,66,66,66,1226,66,66,66,66,66,66,
66,66,66,66,66,66,66,66,66,1288,66,66,66,66,66,66,
66,66,66,66,66,66,66,66,66,1288,66,66,66,66,66,66,
66,66,66,66,66,66,66,66,66,1288,66,66,66,66,66,66,
66,66,66,66,66,66,66,66,66,1288,66,66,66,66,66,66,
66,66,66,66,66,66,66,66,66,1288,66,66,66,66,66,66,
66,968,970,66,1290,66,66,66,66,1288,66,66,66,66,66,66,
8,9,139,9,139,10,66,66,66,1288,66,66,66,66,66,66,
72,776,66,66,778,74,904,906,66,1288,66,66,66,66,66,66,
72,776,66,66,778,74,1288,1288,66,1290,66,66,66,66,66,66
</chunk>
   <chunk x="144" y="-64" width="16" height="16">
0,0,0,0,0,0,0,66,66,66,66,66,0,0,0,0,
0,0,0,0,0,0,0,66,66,66,66,66,0,0,0,0,
0,0,0,0,0,0,0,66,66,66,66,66,0,0,0,0,
0,0,0,0,0,0,0,66,66,66,66,66,0,0,0,0,
0,0,0,0,0,0,0,66,66,66,66,66,0,0,0,0,
0,0,0,0,0,0,0,66,66,66,66,66,0,0,0,0,
66,66,0,0,0,0,0,66,66,66,66,66,0,0,0,0,
66,66,0,0,0,0,0,66,66,66,66,66,0,0,0,0,
66,66,0,0,0,0,0,66,66,66,66,66,0,0,0,0,
66,66,0,0,0,0,0,66,66,66,66,66,0,0,0,0,
66,72,74,517,517,72,74,66,66,66,66,66,0,0,0,0,
66,72,74,517,517,72,74,66,66,66,66,66,0,0,0,0,
66,72,74,517,517,72,74,66,66,66,66,66,0,0,0,0,
66,72,74,517,517,72,74,66,66,66,66,66,0,0,0,0,
66,72,74,517,517,72,74,393,393,66,66,66,0,0,0,0,
66,72,74,517,517,72,74,66,66,66,66,66,0,0,0,0
</chunk>
   <chunk x="0" y="-48" width="16" height="16">
0,0,0,0,0,0,0,0,0,0,0,0,0,0,66,778,
0,0,0,0,0,0,0,0,0,0,0,0,0,0,66,778,
0,0,0,0,0,0,0,0,0,0,0,0,0,0,66,778,
0,0,0,0,0,0,0,0,0,0,0,0,0,0,66,778,
0,0,0,0,0,0,0,0,0,0,0,0,0,0,66,778,
0,0,0,0,0,0,0,0,0,0,0,0,0,0,66,778,
0,0,0,0,0,0,0,0,0,0,0,0,0,0,66,778,
0,0,0,0,0,0,0,0,0,0,0,0,0,0,66,778,
0,0,0,0,0,0,0,0,0,0,0,0,0,0,66,778,
0,0,0,0,0,0,0,0,0,0,0,0,0,0,66,778,
0,0,0,0,0,0,0,0,0,0,0,0,0,0,66,778,
0,0,0,0,0,0,0,0,0,0,0,0,0,0,66,778,
0,0,0,0,0,0,0,0,0,0,0,0,0,0,713,906,
0,0,0,0,0,0,0,0,0,0,0,0,0,0,66,778,
0,0,0,0,0,0,0,0,0,0,0,0,0,0,66,906,
0,0,0,0,0,0,0,0,0,0,0,0,0,0,66,778
</chunk>
   <chunk x="16" y="-48" width="16" height="16">
66,66,66,66,66,66,776,66,0,0,0,0,0,0,0,0,
66,66,66,66,66,66,776,66,0,0,0,0,0,0,0,0,
66,66,66,66,66,66,776,66,776,517,517,517,517,517,517,517,
66,66,66,66,66,66,776,66,776,450,450,450,450,450,450,450,
66,66,66,66,66,66,776,66,776,450,450,450,450,450,450,450,
66,66,66,66,66,66,776,66,776,517,517,517,517,517,450,450,
66,66,66,66,66,66,904,66,0,0,0,0,0,516,450,450,
66,66,66,66,66,66,776,66,0,0,0,0,0,66,66,66,
66,66,66,66,66,66,904,66,0,66,66,66,66,66,66,66,
66,66,66,66,66,66,776,66,0,66,66,66,66,66,66,66,
66,66,66,66,66,66,904,66,0,66,66,66,66,66,66,66,
66,66,66,66,66,66,776,66,0,66,66,66,66,66,66,66,
713,713,713,713,713,713,904,713,72,74,66,66,66,66,66,66,
66,66,66,66,66,66,776,66,72,74,1160,1161,66,66,66,66,
66,66,66,66,66,66,776,66,72,74,1162,1163,66,66,66,66,
66,66,66,66,66,66,776,66,72,74,1224,1225,66,66,66,66
</chunk>
   <chunk x="32" y="-48" width="16" height="16">
0,0,0,0,0,0,0,0,0,0,0,0,0,0,0,0,
0,0,0,0,0,0,0,0,0,0,0,0,0,0,0,0,
517,517,517,517,517,517,517,517,517,517,517,517,517,517,517,517,
450,450,450,450,450,450,450,450,450,450,450,450,450,450,450,450,
450,450,450,450,450,450,450,450,450,450,450,450,450,450,450,450,
517,517,517,517,517,517,517,517,517,517,517,517,517,517,517,517,
516,0,0,0,0,0,0,0,516,516,0,0,0,0,0,0,
66,0,0,0,0,0,0,0,516,516,0,0,0,0,0,0,
66,66,1226,66,66,66,66,66,968,970,66,66,66,66,66,66,
66,66,1288,66,66,66,66,66,456,458,66,66,66,66,66,66,
66,66,1288,66,66,66,66,66,456,712,713,713,714,712,713,713,
66,66,1288,66,66,66,66,66,456,840,900,898,842,776,901,962,
66,66,1288,66,66,66,66,66,456,712,713,713,714,776,901,898,
66,66,1288,66,66,66,66,66,456,840,962,900,842,840,962,900,
66,66,1288,66,66,66,66,66,456,776,713,713,66,66,713,713,
66,66,1288,66,66,66,66,66,456,776,66,1226,1226,66,66,66
</chunk>
   <chunk x="48" y="-48" width="16" height="16">
0,0,0,0,0,0,0,0,0,0,0,0,0,0,0,0,
0,0,0,0,0,0,0,0,0,0,0,0,0,0,0,0,
517,517,517,517,517,517,517,517,517,517,517,517,517,517,517,517,
450,450,450,450,450,450,450,450,450,450,450,450,450,450,450,450,
450,450,450,450,450,450,450,450,450,450,450,450,450,450,450,450,
517,517,517,517,517,517,517,517,517,517,517,517,517,517,517,517,
0,0,0,0,0,0,0,0,0,0,0,0,0,0,0,516,
0,0,0,0,0,0,0,0,0,0,0,0,0,0,0,66,
66,1226,66,66,66,66,66,66,66,1226,66,66,66,66,776,778,
66,1288,1161,66,66,66,66,66,66,1288,66,66,66,66,776,778,
713,713,714,66,66,66,66,66,66,1288,66,66,66,66,776,778,
900,66,778,66,66,66,66,66,66,1288,66,66,66,66,776,778,
901,962,778,66,66,66,66,66,66,1288,66,66,66,66,776,778,
901,898,842,66,66,66,66,66,66,1288,66,66,66,66,776,778,
713,713,778,66,66,66,66,66,66,1288,66,66,66,66,776,778,
66,1160,778,66,66,66,66,66,66,1288,66,66,66,66,776,778
</chunk>
   <chunk x="64" y="-48" width="16" height="16">
0,0,0,0,0,0,0,0,0,0,0,0,0,0,0,0,
0,0,0,0,0,0,0,0,0,0,0,0,0,0,0,0,
517,517,517,517,517,517,517,517,517,517,517,517,517,517,517,517,
450,450,450,450,450,450,450,450,450,450,450,450,450,450,450,450,
450,450,450,450,450,450,450,450,450,450,450,450,450,450,450,450,
450,450,517,517,517,517,517,517,517,517,517,517,517,517,517,517,
450,450,516,0,0,0,0,0,0,0,0,0,0,0,0,0,
66,66,66,0,0,0,0,0,0,0,0,0,0,0,0,0,
66,66,66,66,66,66,66,66,66,72,66,66,74,66,776,517,
66,66,66,66,66,66,66,66,9,8,9,139,10,139,776,517,
66,66,66,66,66,66,66,66,66,72,66,66,74,66,776,450,
66,66,66,66,66,66,66,66,66,72,66,66,74,66,776,450,
66,66,66,66,66,66,72,74,66,72,66,66,74,66,776,517,
66,66,66,66,66,66,72,74,66,72,66,66,74,66,0,0,
66,66,66,66,66,66,72,74,66,72,66,66,74,66,0,0,
66,66,66,66,66,66,72,74,66,72,66,66,74,66,0,0
</chunk>
   <chunk x="80" y="-48" width="16" height="16">
0,0,0,0,0,0,0,0,66,713,906,713,713,713,713,713,
0,0,0,0,0,0,0,0,66,66,778,66,66,66,66,66,
517,517,517,0,0,0,0,0,66,66,778,66,66,66,66,66,
450,450,516,0,0,0,0,0,66,66,778,66,66,66,66,66,
450,516,516,0,0,0,0,0,66,66,778,66,66,66,66,66,
517,516,516,0,0,0,0,0,66,66,778,66,66,66,66,66,
0,516,516,0,0,0,0,0,66,66,778,66,66,66,66,66,
0,516,516,0,0,0,0,0,66,66,778,66,66,66,66,66,
517,516,516,0,0,0,0,0,0,66,778,66,66,66,66,66,
517,450,450,517,517,517,517,517,0,66,778,66,66,66,66,66,
450,450,450,450,450,450,450,450,0,66,778,66,66,66,66,66,
450,450,450,450,450,450,450,450,0,66,778,66,66,66,66,66,
517,450,450,517,517,517,517,517,0,66,778,66,66,66,66,66,
0,516,516,0,0,0,0,0,0,66,778,66,66,66,66,66,
0,516,516,0,0,0,0,0,0,66,778,66,66,66,66,66,
0,516,516,0,0,0,0,0,0,66,778,66,66,66,66,66
</chunk>
   <chunk x="96" y="-48" width="16" height="16">
713,904,66,66,66,66,66,66,66,66,66,66,66,66,66,66,
66,776,66,66,0,0,0,0,0,0,0,0,0,0,0,0,
66,904,66,66,0,0,0,0,0,0,0,0,0,0,0,0,
66,776,66,66,0,0,0,0,0,0,0,0,0,0,0,0,
66,904,66,66,0,0,0,0,0,0,0,0,0,0,0,0,
66,776,66,66,0,0,0,0,0,0,0,0,0,0,0,0,
66,904,66,66,0,0,0,0,0,0,0,0,0,0,0,0,
66,776,66,0,0,0,0,0,0,0,0,0,0,0,0,0,
66,904,66,0,0,0,0,0,0,0,0,0,0,0,0,0,
66,776,66,0,0,0,0,0,0,0,0,0,0,0,0,0,
66,904,66,0,0,0,0,0,0,0,0,0,0,0,0,0,
66,776,66,0,0,0,0,0,0,0,0,0,0,0,0,0,
66,904,66,0,0,0,0,0,0,0,0,0,0,0,0,0,
66,776,66,0,0,0,0,0,0,0,0,0,0,0,0,0,
66,904,66,0,0,0,0,0,0,0,0,0,0,0,0,0,
66,776,66,0,0,0,0,0,0,0,0,0,0,0,0,0
</chunk>
   <chunk x="112" y="-48" width="16" height="16">
66,66,66,66,66,66,66,66,66,66,66,66,66,66,66,66,
0,0,0,0,0,0,0,0,0,0,0,0,0,0,0,0,
0,0,0,0,0,0,0,0,0,0,0,0,0,0,0,0,
0,0,0,0,0,0,0,0,0,0,0,0,0,0,0,0,
0,0,0,0,0,0,0,0,0,0,0,0,0,0,0,0,
0,0,0,0,0,0,0,0,0,0,0,0,0,0,0,0,
0,0,0,0,0,0,0,0,0,0,0,0,0,0,0,0,
0,0,0,0,0,0,0,0,0,0,0,0,0,0,0,0,
0,0,0,0,0,0,0,0,0,0,0,0,0,0,0,0,
0,0,0,0,0,0,0,0,0,0,0,0,0,0,0,0,
0,0,0,0,0,0,0,0,0,0,0,0,0,0,0,0,
0,0,0,0,0,0,0,0,0,0,0,0,0,0,0,0,
0,0,0,0,0,0,0,0,0,0,0,0,0,0,0,0,
0,0,0,0,0,0,0,0,0,0,0,0,0,0,0,0,
0,0,0,0,0,0,0,0,0,0,0,0,0,0,0,0,
0,0,0,0,0,0,0,0,0,0,0,0,0,0,0,0
</chunk>
   <chunk x="128" y="-48" width="16" height="16">
66,66,66,0,0,0,0,0,0,0,0,0,0,0,0,0,
0,0,0,0,0,0,0,0,0,0,0,0,0,0,0,0,
0,0,0,0,0,0,0,0,0,0,0,0,0,0,0,0,
0,0,0,0,0,0,0,0,0,0,0,0,0,0,0,0,
0,0,0,0,0,0,0,0,0,0,0,0,0,0,0,0,
0,0,0,0,0,0,0,0,0,0,0,0,0,0,0,0,
0,0,0,0,0,0,0,0,0,0,0,0,0,0,0,0,
0,0,0,0,0,0,0,0,0,0,0,0,0,0,0,0,
0,0,0,0,0,0,0,0,0,0,0,0,0,0,0,0,
0,0,0,0,0,0,0,0,0,0,0,0,0,0,0,0,
0,0,0,0,0,0,0,0,0,0,0,0,0,0,0,0,
0,0,0,0,0,0,0,0,0,0,0,0,0,0,0,0,
0,0,0,0,0,0,0,0,0,0,0,0,0,0,0,0,
0,0,0,0,0,0,0,0,0,0,0,0,0,0,0,0,
0,0,0,0,0,0,0,0,0,0,0,0,0,0,0,0,
0,0,0,0,0,0,0,0,0,0,0,0,0,0,0,0
</chunk>
   <chunk x="144" y="-48" width="16" height="16">
0,0,0,0,0,0,0,66,66,66,66,66,0,0,0,0,
0,0,0,0,0,0,0,66,66,66,66,66,0,0,0,0,
0,0,0,0,0,0,0,66,66,66,66,66,0,0,0,0,
0,0,0,0,0,0,0,66,66,66,66,66,0,0,0,0,
0,0,0,0,0,0,0,66,66,66,66,66,0,0,0,0,
0,0,0,0,0,0,0,66,66,66,66,66,0,0,0,0,
0,0,0,0,0,0,0,66,66,66,66,66,0,0,0,0,
0,0,0,0,0,0,0,66,66,66,66,66,0,0,0,0,
0,0,0,0,0,0,0,66,66,66,66,66,0,0,0,0,
0,0,0,0,0,0,0,66,66,66,66,66,0,0,0,0,
0,0,0,0,0,0,0,66,66,66,66,66,0,0,0,0,
0,0,0,0,0,0,0,66,66,66,66,66,0,0,0,0,
0,0,0,0,0,0,0,66,66,66,66,66,0,0,0,0,
0,0,0,0,0,0,0,66,66,66,66,66,0,0,0,0,
0,0,0,0,0,0,0,66,66,66,66,66,0,0,0,0,
0,0,0,0,0,0,0,66,66,66,66,66,0,0,0,0
</chunk>
   <chunk x="160" y="-48" width="16" height="16">
0,0,0,0,0,0,0,0,0,0,0,0,0,0,0,0,
0,0,0,0,0,0,0,0,0,0,0,0,0,0,0,0,
0,0,0,0,0,0,0,0,0,0,0,0,0,0,0,0,
0,0,66,0,0,0,0,0,0,0,0,0,0,0,0,0,
0,0,0,66,0,0,0,0,0,0,0,0,0,0,0,0,
0,0,0,0,66,0,0,0,0,0,0,0,0,0,0,0,
0,0,0,0,66,66,0,0,0,0,0,0,0,0,0,0,
0,0,0,0,0,66,66,0,0,0,0,0,0,0,0,0,
0,0,0,0,0,0,66,66,0,0,0,0,0,0,0,0,
0,0,0,0,0,0,0,66,0,0,0,0,0,0,0,0,
0,0,0,0,0,0,0,66,66,0,0,0,0,0,0,0,
0,0,0,0,0,0,0,0,66,0,0,0,0,0,0,0,
0,0,0,0,0,0,0,0,0,66,0,0,0,0,0,0,
0,0,0,0,0,0,0,0,0,66,66,0,0,0,0,0,
0,0,0,0,0,0,0,0,0,0,66,66,0,0,0,0,
0,0,0,0,0,0,0,0,0,0,0,0,0,0,0,0
</chunk>
   <chunk x="0" y="-32" width="16" height="16">
0,0,0,0,0,0,0,0,0,0,0,0,0,0,66,906,
0,0,0,0,0,0,0,0,0,0,0,0,0,0,66,778,
0,0,0,0,0,0,0,0,0,0,0,0,0,0,713,906,
0,0,0,0,0,0,0,0,0,0,0,0,0,0,66,778,
0,0,0,0,0,0,0,0,0,0,0,0,0,0,66,778,
0,0,0,0,0,0,0,0,0,0,0,0,0,0,66,778,
0,0,0,0,0,0,0,0,0,0,0,0,0,0,66,778,
0,0,0,0,0,0,0,0,0,0,0,0,0,0,66,778,
0,0,0,0,0,0,0,0,0,0,0,0,0,0,66,778,
0,0,0,0,0,0,0,0,0,0,0,0,0,0,66,778,
0,0,0,0,0,0,0,0,0,0,0,0,0,0,66,778,
0,0,0,0,0,0,0,0,0,0,0,0,0,0,66,778,
0,0,0,0,0,0,0,0,0,0,0,0,0,0,66,778,
0,0,0,0,0,0,0,0,0,0,0,0,0,0,66,778,
0,0,0,0,0,0,0,0,0,0,0,0,0,0,66,778,
0,0,0,0,0,0,0,0,0,0,0,0,0,0,66,778
</chunk>
   <chunk x="16" y="-32" width="16" height="16">
66,66,66,66,66,66,776,66,72,74,66,1227,66,66,66,66,
66,66,66,66,66,66,776,66,72,74,66,1290,66,66,66,66,
713,713,713,713,713,713,904,66,0,0,0,0,0,0,0,0,
66,66,66,66,66,66,776,66,0,0,0,0,0,0,0,0,
66,66,66,66,66,66,904,66,0,0,0,0,0,0,0,0,
66,66,66,66,66,66,776,66,0,517,517,517,517,517,517,517,
66,66,66,66,66,66,904,66,0,450,450,450,450,450,450,450,
66,66,66,66,66,66,776,66,0,450,450,450,450,450,450,450,
66,66,66,66,66,66,904,66,0,517,517,517,517,517,517,450,
66,66,66,66,66,66,776,66,0,0,0,0,0,0,516,450,
66,66,66,66,66,66,904,66,0,0,66,66,66,66,66,66,
66,66,66,66,66,66,776,66,0,66,66,66,66,66,66,66,
66,66,66,66,66,66,904,66,0,66,66,66,66,66,66,66,
66,66,66,66,66,66,776,66,0,66,66,1228,1227,1227,1227,1227,
66,66,66,66,66,66,904,66,0,66,66,66,66,66,393,393,
66,66,66,66,66,66,776,66,0,66,66,66,66,66,393,394
</chunk>
   <chunk x="32" y="-32" width="16" height="16">
66,66,1288,66,66,66,66,66,456,776,843,8,9,904,906,139,
66,66,1290,66,66,66,66,66,520,776,971,1162,1226,1288,1288,1226,
0,0,0,0,0,0,0,0,0,0,0,0,0,0,0,0,
0,0,0,0,0,0,0,0,0,0,0,0,0,0,0,0,
0,0,0,0,0,0,0,0,0,0,0,0,0,0,0,0,
517,517,517,517,517,517,517,517,517,517,517,517,517,517,517,517,
450,450,450,450,450,450,450,450,450,450,450,450,450,450,450,450,
450,450,450,450,450,450,450,450,450,450,450,450,450,450,450,450,
450,517,517,517,517,517,517,517,517,517,517,517,517,517,517,517,
450,516,0,0,0,0,0,0,0,0,0,0,0,0,0,0,
66,66,66,66,66,66,66,66,66,66,66,66,66,66,66,66,
66,66,66,66,66,904,906,66,776,778,66,66,776,778,66,66,
66,66,66,66,66,776,778,66,776,778,66,66,776,778,66,66,
1227,1227,1227,1227,1227,776,778,1164,776,778,66,66,776,778,66,66,
393,394,66,66,66,776,778,66,968,970,66,66,968,970,66,66,
66,458,66,66,66,776,778,66,904,906,66,66,904,906,66,66
</chunk>
   <chunk x="48" y="-32" width="16" height="16">
10,1225,778,66,66,66,66,66,66,1288,66,66,66,66,66,66,
1163,66,778,66,66,66,66,66,66,1290,66,66,66,66,66,66,
0,0,0,0,0,0,0,0,0,0,0,0,0,0,0,0,
0,0,0,0,0,0,0,0,0,0,0,0,0,0,0,0,
0,0,0,0,0,0,0,0,0,0,0,0,0,0,0,0,
517,517,517,517,517,517,517,517,517,517,517,517,517,517,517,517,
450,450,450,450,450,450,450,450,450,450,450,450,450,450,450,450,
450,450,450,450,450,450,450,450,450,450,450,450,450,450,450,450,
517,517,517,517,517,517,517,517,517,517,517,517,517,517,517,517,
0,0,0,0,0,0,0,0,0,0,0,0,0,0,0,0,
66,66,66,66,66,66,66,66,66,66,66,66,66,66,66,66,
66,66,66,66,66,66,66,66,66,66,66,904,906,66,66,66,
66,66,66,66,66,66,66,66,66,66,66,776,778,66,66,66,
66,66,66,66,66,66,66,66,66,66,66,776,778,66,66,66,
66,66,66,66,66,66,66,66,66,66,66,776,778,66,66,66,
66,66,66,66,66,66,66,66,66,66,66,776,778,66,66,66
</chunk>
   <chunk x="64" y="-32" width="16" height="16">
66,66,66,66,66,66,72,74,66,72,66,66,74,66,0,0,
66,66,66,66,66,66,72,74,66,8,9,139,10,66,0,0,
0,0,0,0,0,0,0,74,0,0,0,0,0,0,0,0,
0,0,0,0,0,0,0,0,0,0,0,0,0,0,0,0,
0,0,0,0,0,0,0,0,0,0,0,0,0,0,0,0,
517,517,517,517,517,517,517,517,517,517,517,517,517,517,517,517,
450,450,450,450,450,450,450,450,450,450,450,450,450,450,450,450,
450,450,450,450,450,450,450,450,450,450,450,450,450,450,450,450,
517,450,450,517,517,517,517,517,517,517,517,517,517,450,450,517,
516,450,450,516,0,0,0,0,0,0,0,0,516,450,450,516,
66,66,66,66,66,66,66,66,66,66,66,66,66,66,66,66,
66,66,66,66,66,66,66,66,66,66,66,66,66,66,66,66,
66,66,66,66,66,66,66,66,66,66,66,74,66,66,72,66,
66,66,66,66,66,66,66,66,66,66,66,74,1289,1289,72,66,
66,66,66,66,66,66,66,66,66,66,66,74,1289,1289,72,66,
66,66,66,66,66,66,66,66,66,66,66,74,1289,1289,72,66
</chunk>
   <chunk x="80" y="-32" width="16" height="16">
0,516,516,0,0,0,0,0,0,66,778,66,66,66,66,66,
0,516,516,0,0,0,0,0,0,66,778,66,66,66,66,66,
0,516,516,0,0,0,0,0,0,66,778,66,66,66,66,66,
0,516,516,0,0,0,0,0,0,66,778,66,66,66,66,66,
0,516,516,0,0,0,0,0,0,66,778,66,66,66,66,66,
517,516,516,0,0,0,0,0,0,66,778,66,66,66,66,66,
450,516,516,0,0,0,0,0,0,66,778,66,66,66,66,66,
450,450,516,0,0,0,0,0,0,66,778,66,66,66,66,66,
517,517,517,0,0,0,0,0,0,66,778,66,66,66,66,66,
0,0,0,0,0,0,0,0,0,66,778,66,66,66,66,66,
66,66,66,66,0,0,0,0,66,66,778,66,66,66,66,66,
66,66,66,66,0,0,0,0,66,66,778,66,66,66,66,66,
66,66,66,66,0,0,0,0,66,66,778,66,66,66,66,66,
66,66,66,66,0,0,0,0,66,66,778,66,66,66,66,66,
66,66,66,66,0,0,0,0,66,66,778,66,66,66,66,66,
66,66,66,66,0,0,0,0,66,66,778,66,66,66,66,66
</chunk>
   <chunk x="96" y="-32" width="16" height="16">
66,904,66,0,0,0,0,0,0,0,0,0,0,0,0,0,
66,776,66,0,0,0,0,0,0,0,0,0,0,0,0,0,
66,904,66,0,0,0,0,0,0,0,0,0,0,0,0,0,
66,776,66,0,0,0,0,0,0,0,0,0,0,0,0,0,
66,904,66,0,0,0,0,0,0,0,0,0,0,0,0,0,
66,776,66,0,0,0,0,0,0,0,0,0,0,0,0,0,
66,904,66,0,0,0,0,0,0,0,0,0,0,0,0,0,
66,776,66,0,0,0,0,0,0,0,0,0,0,0,0,0,
66,904,66,0,0,0,0,0,0,0,0,0,0,0,0,0,
66,776,66,0,0,0,0,0,0,0,0,0,0,0,0,0,
66,904,66,0,0,0,0,0,0,0,0,0,0,0,0,0,
66,776,66,0,0,0,0,0,0,0,0,0,0,0,0,0,
66,904,66,0,0,0,0,0,0,0,0,0,0,0,0,0,
66,776,66,0,0,0,0,0,0,0,0,0,0,0,0,0,
66,904,66,66,0,0,0,0,0,0,0,0,0,0,0,0,
66,776,66,66,0,0,0,0,0,0,0,0,0,0,0,0
</chunk>
   <chunk x="144" y="-32" width="16" height="16">
0,0,0,0,0,0,0,66,66,66,66,66,0,0,0,0,
0,0,0,0,0,0,0,66,66,66,66,66,0,0,0,0,
0,0,0,0,0,0,0,66,66,66,66,66,0,0,0,0,
0,0,0,0,0,0,0,66,66,66,66,66,776,517,517,517,
0,0,0,0,0,0,0,66,66,66,66,66,776,450,450,450,
0,0,0,0,0,0,0,66,66,66,66,66,776,450,450,450,
0,0,0,0,0,0,0,66,66,66,66,66,776,450,450,450,
0,0,0,0,0,0,0,66,66,66,66,66,776,450,450,450,
0,0,0,0,0,0,0,66,66,66,66,66,776,517,517,517,
0,0,0,0,0,0,0,0,0,0,0,0,0,0,0,0,
0,0,0,0,0,0,0,0,0,0,0,0,0,0,0,0,
0,0,0,0,0,0,0,0,0,0,0,0,0,0,0,0,
0,0,0,0,0,0,0,0,0,0,0,0,0,0,0,0,
0,0,0,0,0,0,0,0,0,0,0,0,0,0,0,0,
0,0,0,0,0,0,0,0,0,0,0,0,0,0,0,0,
0,0,0,0,0,0,0,0,0,0,0,0,0,0,0,0
</chunk>
   <chunk x="160" y="-32" width="16" height="16">
0,0,0,0,0,0,0,0,0,0,0,0,0,0,0,0,
0,0,0,0,0,0,0,0,770,770,770,770,770,770,0,0,
0,0,0,0,0,0,0,0,770,770,770,770,770,770,0,0,
517,517,517,517,517,517,778,776,770,770,770,770,770,770,0,0,
450,450,450,450,450,450,778,776,770,770,770,770,770,770,0,0,
450,450,450,450,450,450,778,776,770,770,770,770,770,770,0,0,
450,450,450,450,450,450,778,776,770,770,770,770,770,770,0,0,
450,450,450,450,450,450,778,776,770,770,770,770,770,770,0,0,
517,517,517,517,517,517,778,776,770,770,770,770,770,770,0,0,
0,0,0,0,0,0,0,0,0,0,0,0,0,0,0,0,
0,0,0,0,0,0,0,0,0,0,0,0,0,0,0,0,
0,0,0,0,0,0,0,0,0,0,0,0,0,0,0,0,
0,0,0,0,0,0,0,0,0,0,0,0,0,0,0,0,
0,0,0,0,0,0,0,0,0,0,0,0,0,0,0,0,
0,0,0,0,0,0,0,0,0,0,0,0,0,0,0,0,
0,0,0,0,0,0,0,0,0,0,0,0,0,0,0,0
</chunk>
   <chunk x="-16" y="-16" width="16" height="16">
0,0,0,0,0,0,0,0,0,0,0,0,0,0,0,0,
0,0,0,0,0,0,0,0,0,0,0,0,0,0,0,0,
0,0,0,0,0,0,0,0,0,0,0,0,0,0,0,0,
0,0,0,0,0,0,0,0,0,0,0,0,0,0,0,0,
0,0,0,0,0,0,0,0,0,0,0,0,0,0,0,0,
0,0,0,0,0,0,0,0,0,0,0,0,0,0,0,0,
0,0,66,456,458,66,66,66,66,66,66,66,66,66,66,66,
0,0,66,456,458,66,66,66,66,66,66,66,66,66,66,66,
0,0,66,456,458,66,66,66,66,66,66,66,66,66,66,66,
0,0,66,456,458,66,66,66,66,66,66,66,66,66,66,66,
0,0,844,460,458,66,66,66,66,66,74,776,778,72,1228,1289,
0,0,972,521,522,66,66,66,66,66,74,776,778,72,66,66,
0,0,66,66,66,66,66,66,1160,1164,74,776,778,72,1228,1227,
0,0,66,66,66,66,66,66,1288,66,74,776,778,72,66,1288,
0,0,66,66,66,66,66,66,1288,66,74,776,778,72,66,1288,
0,0,66,66,66,66,66,1160,1225,66,66,66,66,66,66,1224
</chunk>
   <chunk x="0" y="-16" width="16" height="16">
0,0,0,0,0,0,0,0,0,0,0,0,0,0,66,778,
0,0,0,0,0,0,0,0,0,0,0,0,0,0,66,778,
0,0,0,0,0,0,0,0,0,0,0,0,0,0,66,778,
0,0,0,0,0,0,0,0,0,0,0,0,0,0,66,778,
0,0,0,0,0,0,0,0,0,0,0,0,0,0,66,778,
0,0,0,0,0,0,0,0,0,0,0,0,0,0,66,778,
66,66,66,456,66,66,458,66,0,0,0,0,0,0,66,66,
66,66,66,456,66,66,458,66,0,0,0,0,0,0,66,66,
66,66,66,520,66,66,522,66,0,0,0,0,0,0,66,66,
1288,66,66,66,520,522,66,66,0,0,0,0,0,0,66,66,
1163,66,66,66,66,66,66,66,72,74,517,517,72,74,778,776,
1288,66,66,66,66,66,1160,1161,72,74,517,517,72,74,778,776,
1225,66,66,66,66,66,1162,1163,72,74,517,517,72,74,778,776,
66,66,66,66,66,66,1224,1225,72,74,517,517,72,74,778,776,
66,66,66,66,66,66,66,66,72,74,517,517,72,74,778,776,
1161,66,66,66,66,66,66,66,72,74,517,517,72,74,778,776
</chunk>
   <chunk x="16" y="-16" width="16" height="16">
66,66,66,66,66,66,904,66,0,66,66,66,66,66,1227,458,
66,66,66,66,66,66,776,66,0,66,66,66,66,66,1288,458,
66,66,66,66,66,66,904,66,0,66,66,66,66,66,712,713,
66,66,66,66,66,66,776,66,0,66,66,66,66,66,968,969,
66,66,66,66,66,66,904,66,0,66,66,66,66,66,66,66,
66,66,66,66,66,66,776,66,0,66,66,66,66,66,66,66,
66,66,66,66,66,66,66,66,0,66,66,66,66,66,66,66,
66,66,66,66,66,66,66,66,0,66,66,66,66,66,904,1164,
66,66,66,66,66,66,66,66,0,66,0,0,0,0,0,0,
66,66,66,66,66,66,66,66,0,0,0,0,0,0,0,0,
66,66,66,66,66,66,66,66,0,0,0,0,0,0,0,0,
66,66,66,66,66,66,66,66,0,0,0,0,0,0,0,0,
66,66,66,66,66,66,66,66,0,0,0,0,0,0,0,0,
66,66,66,66,66,66,66,66,0,0,0,0,0,0,0,0,
66,66,66,66,66,66,66,66,0,0,0,0,0,0,0,0,
66,66,66,66,66,66,66,66,0,0,0,0,0,0,0,0
</chunk>
   <chunk x="32" y="-16" width="16" height="16">
1161,458,66,66,66,776,778,66,776,779,844,843,780,778,66,66,
1288,458,66,66,66,776,778,66,840,841,971,971,716,778,66,66,
714,713,714,66,66,776,778,66,1226,1226,66,66,968,970,66,66,
970,969,970,66,66,776,778,66,1288,1288,66,66,904,906,66,66,
778,66,778,1160,1227,776,778,1227,1291,1225,66,66,776,778,66,66,
778,66,778,1288,66,776,778,66,66,66,66,66,776,778,66,66,
778,66,778,1288,66,776,778,66,66,66,66,66,776,778,66,66,
906,1164,906,1225,66,776,778,66,66,66,66,66,776,778,66,66,
0,0,0,0,0,0,0,0,0,0,0,0,0,0,0,0,
0,0,0,0,0,0,0,0,0,0,0,0,0,0,0,0,
0,0,0,0,0,0,0,0,0,0,0,0,0,0,0,0,
0,0,0,0,0,0,0,0,0,0,0,0,0,0,0,0,
0,0,0,0,0,0,0,0,0,0,0,0,0,0,0,0,
0,0,0,0,0,0,0,0,0,0,0,0,0,0,0,0,
0,0,0,0,0,0,0,0,0,0,0,0,0,0,0,0,
0,0,0,0,0,0,0,0,0,0,0,0,0,0,0,0
</chunk>
   <chunk x="48" y="-16" width="16" height="16">
66,66,66,66,66,66,66,66,66,66,66,776,778,66,66,66,
66,66,66,66,66,66,66,66,66,66,66,776,778,66,66,66,
66,66,66,66,66,66,66,66,66,66,66,776,778,66,66,1226,
66,66,66,66,66,66,66,66,66,66,66,776,778,66,66,1288,
66,66,66,66,66,66,66,66,66,66,66,776,778,66,66,8,
66,66,66,8,9,139,9,139,10,66,66,776,778,66,66,8,
904,906,66,72,776,66,66,778,74,904,906,776,778,66,66,72,
1288,1288,66,72,776,66,66,778,74,1288,1288,776,778,66,66,72,
0,0,0,0,0,0,0,0,0,0,0,0,0,0,0,0,
0,0,0,0,0,0,0,0,0,0,0,0,0,0,0,0,
0,0,0,0,0,0,0,0,0,0,0,0,0,0,0,0,
0,0,0,0,0,0,0,0,0,0,0,0,0,0,0,0,
0,0,0,0,0,0,0,0,0,0,0,0,0,0,0,0,
0,0,0,0,0,0,0,0,0,0,0,0,0,0,0,0,
0,0,0,0,0,0,0,0,0,0,0,0,0,0,0,0,
0,0,0,0,0,0,0,0,0,0,0,0,0,0,0,0
</chunk>
   <chunk x="64" y="-16" width="16" height="16">
66,66,66,66,66,66,66,66,66,66,66,74,1289,1289,72,66,
66,66,66,712,714,66,66,66,66,66,66,74,1289,1289,72,66,
1226,1226,66,904,906,66,66,72,74,66,66,74,1289,1289,72,66,
1288,1288,66,776,778,66,66,72,74,66,66,74,1289,1289,72,66,
139,10,66,968,970,66,66,72,74,66,66,74,1289,1289,72,66,
9,139,9,139,10,66,66,72,74,66,66,74,1289,1289,72,392,
776,904,906,778,74,66,66,72,74,66,66,74,1289,1289,72,456,
776,1288,1288,778,74,66,66,72,74,66,66,74,1289,1289,72,520,
0,0,0,0,0,0,0,0,66,66,66,66,66,66,66,66,
0,0,0,0,0,0,0,0,0,0,0,0,0,0,0,0,
0,0,0,0,0,0,0,0,0,0,0,0,0,0,0,0,
0,0,0,0,0,0,0,0,0,0,0,0,0,0,0,0,
0,0,0,0,0,0,0,0,0,0,0,0,0,0,0,0,
0,0,0,0,0,0,0,0,0,0,0,0,0,0,0,0,
0,0,0,0,0,0,0,0,0,0,0,0,0,0,0,0,
0,0,0,0,0,0,0,0,0,0,0,0,0,0,0,0
</chunk>
   <chunk x="80" y="-16" width="16" height="16">
66,66,66,66,0,0,0,0,66,66,778,66,66,66,66,66,
66,66,66,66,0,0,0,0,66,66,778,66,66,66,66,66,
66,66,66,72,74,517,517,72,74,713,906,713,713,713,713,713,
66,1160,1161,72,74,517,517,72,74,66,778,66,66,66,66,66,
393,393,394,72,74,517,517,72,74,66,778,66,66,66,66,66,
393,460,458,72,74,517,517,72,74,66,778,66,66,66,66,66,
459,393,394,72,74,517,517,72,74,66,778,66,66,66,66,66,
521,521,396,72,74,517,517,72,74,66,778,66,66,66,66,66,
66,66,66,66,0,0,0,0,66,713,906,713,713,713,713,713,
0,0,0,0,0,0,0,0,66,66,778,66,66,66,66,66,
0,0,0,0,0,0,0,0,66,66,778,66,66,66,66,66,
0,0,0,0,0,0,0,0,66,66,778,66,66,66,66,66,
0,0,0,0,0,0,0,0,66,66,778,66,66,66,66,66,
0,0,0,0,0,0,0,0,66,66,778,66,66,66,66,66,
0,0,0,0,0,0,0,0,66,66,778,66,66,66,66,66,
0,0,0,0,0,0,0,0,66,66,778,66,66,66,66,66
</chunk>
   <chunk x="96" y="-16" width="16" height="16">
66,904,66,66,0,0,0,0,0,0,0,0,0,0,0,0,
66,776,66,66,0,0,0,0,0,0,0,0,0,0,0,0,
713,904,713,66,0,0,0,0,0,0,0,0,0,0,0,0,
66,776,66,66,0,0,0,0,0,0,0,0,0,0,0,0,
66,776,66,66,0,0,0,0,0,0,0,0,0,0,0,0,
66,776,66,66,0,0,0,0,0,0,0,0,0,0,0,0,
66,776,66,66,0,0,0,0,0,0,0,0,0,0,0,0,
66,776,66,66,0,0,0,0,0,0,0,0,0,0,0,0,
713,904,66,66,0,0,0,0,0,0,0,0,0,0,0,0,
66,776,66,66,0,0,0,0,0,0,0,0,0,0,0,0,
66,904,66,66,0,0,0,0,0,0,0,0,0,0,0,0,
66,776,66,66,0,0,0,0,0,0,0,0,0,0,0,0,
66,904,66,66,0,0,0,0,0,0,0,0,0,0,0,0,
66,776,66,66,0,0,0,0,0,0,0,0,0,0,0,0,
66,904,66,66,0,0,0,0,0,0,0,0,0,0,0,0,
66,776,66,66,0,0,0,0,0,0,0,0,0,0,0,0
</chunk>
   <chunk x="80" y="0" width="16" height="16">
0,0,0,0,0,0,0,0,66,66,778,66,66,66,66,66,
0,0,0,0,0,0,0,0,66,66,778,66,66,66,66,66,
0,0,0,0,0,0,0,0,66,66,778,66,66,66,66,66,
0,0,0,0,0,0,0,0,66,66,778,66,66,66,66,66,
0,0,0,0,0,0,0,0,66,66,778,66,66,66,66,66,
0,0,0,0,0,0,0,0,66,66,778,66,66,66,66,66,
0,0,0,0,0,0,0,0,66,66,778,66,66,66,66,66,
0,0,0,0,0,0,0,0,66,66,778,66,66,66,66,66,
0,0,0,0,0,0,0,0,66,66,778,66,66,66,66,66,
0,0,0,0,0,0,0,0,66,66,778,66,66,66,66,66,
0,0,0,0,0,0,0,0,66,66,778,66,66,66,66,66,
0,0,0,0,0,0,0,0,66,66,778,66,66,66,66,66,
0,0,0,0,0,0,0,0,66,66,778,66,66,66,66,66,
0,0,0,0,0,0,0,0,66,66,778,66,66,66,66,66,
0,0,0,0,0,0,0,0,66,66,66,66,66,66,66,66,
0,0,0,0,0,0,0,0,0,0,0,0,0,0,0,0
</chunk>
   <chunk x="96" y="0" width="16" height="16">
66,904,66,66,0,0,0,0,0,0,0,0,0,0,0,0,
66,776,66,66,0,0,0,0,0,0,0,0,0,0,0,0,
66,904,66,66,0,0,0,0,0,0,0,0,0,0,0,0,
66,776,66,66,0,0,0,0,0,0,0,0,0,0,0,0,
66,904,66,66,0,0,0,0,0,0,0,0,0,0,0,0,
66,776,66,66,0,0,0,0,0,0,0,0,0,0,0,0,
66,904,66,66,0,0,0,0,0,0,0,0,0,0,0,0,
66,776,66,66,0,0,0,0,0,0,0,0,0,0,0,0,
66,904,66,66,0,0,0,0,0,0,0,0,0,0,0,0,
66,776,66,66,0,0,0,0,0,0,0,0,0,0,0,0,
66,904,66,66,0,0,0,0,0,0,0,0,0,0,0,0,
66,776,66,66,0,0,0,0,0,0,0,0,0,0,0,0,
66,904,66,66,0,0,0,0,0,0,0,0,0,0,0,0,
66,776,66,66,0,0,0,0,0,0,0,0,0,0,0,0,
66,904,66,66,0,0,0,0,0,0,0,0,0,0,0,0,
0,0,0,0,0,0,0,0,0,0,0,0,0,0,0,0
</chunk>
  </data>
 </layer>
 <layer id="1" name="BlockCollide" width="30" height="20" locked="1">
  <data encoding="csv">
   <chunk x="80" y="-80" width="16" height="16">
0,0,0,0,0,0,0,0,0,0,0,0,0,0,0,0,
0,0,0,0,0,0,0,0,0,0,0,0,0,0,0,0,
0,0,0,0,0,0,0,0,0,0,0,0,0,0,0,0,
0,0,0,0,0,0,0,0,0,0,0,0,0,0,0,0,
0,0,0,0,0,0,0,0,0,0,0,0,0,0,0,0,
0,0,0,0,0,0,0,0,0,0,0,0,0,0,0,0,
0,0,0,0,0,0,0,0,0,0,0,0,0,0,0,0,
0,0,0,0,0,0,0,0,0,0,0,0,0,0,0,0,
0,0,0,0,0,0,0,0,0,0,0,0,0,0,0,0,
0,0,0,0,0,0,0,0,0,0,0,0,0,0,0,0,
0,0,0,0,0,0,0,0,74,712,713,713,713,713,713,713,
0,0,0,0,0,0,0,0,74,776,11,137,137,137,137,137,
0,0,0,0,0,0,0,0,74,776,74,0,0,0,0,0,
0,0,0,0,0,0,0,0,74,968,970,0,0,0,0,0,
0,0,0,0,0,0,0,0,74,1288,1288,0,0,0,0,0,
0,0,0,0,0,0,0,0,74,1288,1288,0,0,0,0,0
</chunk>
   <chunk x="96" y="-80" width="16" height="16">
0,0,0,0,0,0,0,0,0,0,0,0,0,0,0,0,
0,0,0,0,0,0,0,0,0,0,0,0,0,0,0,0,
0,0,0,0,0,0,0,0,0,0,0,0,0,0,0,0,
0,0,0,0,0,0,0,0,0,0,0,0,0,0,0,0,
0,0,0,0,0,0,0,0,0,0,0,0,0,0,0,0,
0,0,0,0,0,0,0,0,0,0,0,0,0,0,0,0,
0,0,0,0,0,0,0,0,0,0,0,0,0,0,0,0,
0,0,0,0,0,0,0,0,0,0,0,0,0,0,0,0,
0,0,0,0,0,0,0,0,0,0,0,0,0,0,0,0,
0,0,0,0,0,0,0,0,0,0,0,0,0,0,0,0,
713,713,714,72,0,0,0,0,0,0,0,0,0,0,0,0,
137,12,778,72,0,0,0,0,0,0,0,0,0,0,0,0,
0,72,778,72,0,0,0,0,0,0,0,0,0,0,0,0,
0,968,970,72,0,0,0,0,0,0,0,0,0,0,0,0,
0,1288,1288,72,0,0,0,0,0,0,0,0,0,0,0,0,
0,1288,1288,72,0,0,0,0,0,0,0,0,0,0,0,0
</chunk>
   <chunk x="144" y="-80" width="16" height="16">
0,0,0,0,0,0,0,0,0,0,0,0,0,0,0,0,
0,0,0,0,0,0,0,0,0,0,0,0,0,0,0,0,
0,0,0,0,0,0,0,0,0,0,0,0,0,0,0,0,
0,0,0,0,0,0,0,0,0,0,0,0,0,0,0,0,
0,0,0,0,0,0,0,0,0,0,0,0,0,0,0,0,
0,0,0,0,0,0,0,0,0,0,0,0,0,0,0,0,
0,0,0,0,0,0,0,0,0,0,0,0,0,0,0,0,
0,0,0,0,0,0,0,0,0,0,0,0,0,0,0,0,
0,0,0,0,0,0,0,0,0,0,0,0,0,0,0,0,
0,0,0,0,0,0,0,0,0,0,0,0,0,0,0,0,
0,0,0,0,0,0,0,0,0,0,0,0,0,0,0,0,
0,0,0,0,0,0,0,0,0,0,0,0,0,0,0,0,
0,0,0,0,0,0,0,0,0,0,0,0,0,0,0,0,
0,0,0,0,0,0,67,66,66,66,66,66,66,66,66,66,
0,0,0,0,0,0,67,0,0,0,0,0,66,66,66,66,
0,0,0,0,0,0,67,0,0,0,0,0,66,66,66,66
</chunk>
   <chunk x="160" y="-80" width="16" height="16">
0,0,0,0,0,0,0,0,0,0,0,0,0,0,0,0,
0,0,0,0,0,0,0,0,0,0,0,0,0,0,0,0,
0,0,0,0,0,0,0,0,0,0,0,0,0,0,0,0,
0,0,0,0,0,0,0,0,0,0,0,0,0,0,0,0,
0,0,0,0,0,0,0,0,0,0,0,0,0,0,0,0,
0,0,0,0,0,0,0,0,0,0,0,0,0,0,0,0,
0,0,0,0,0,0,0,0,0,0,0,0,0,0,0,0,
0,0,0,0,0,0,0,0,0,0,0,0,0,0,0,0,
0,0,0,0,0,0,0,0,0,0,0,0,0,0,0,0,
0,0,0,0,0,0,0,0,0,0,0,0,0,0,0,0,
0,0,0,0,0,0,0,0,0,0,0,0,0,0,0,0,
0,0,0,0,0,0,0,0,0,0,0,0,0,0,0,0,
0,0,0,0,0,0,0,0,0,0,0,0,0,0,0,0,
66,66,66,66,66,66,66,66,66,66,66,66,66,66,66,66,
66,66,66,66,66,66,66,66,66,66,66,66,66,66,66,66,
66,66,66,66,66,66,66,66,66,66,66,66,66,66,66,66
</chunk>
   <chunk x="0" y="-64" width="16" height="16">
0,0,0,0,0,0,0,0,0,0,0,0,0,0,0,0,
0,0,0,0,0,0,0,0,0,0,0,0,0,0,0,0,
0,0,0,0,0,0,0,0,0,0,0,0,0,0,0,0,
0,0,0,0,0,0,0,0,0,0,0,0,0,0,0,0,
0,0,0,0,0,0,0,0,0,0,0,0,0,0,0,0,
0,0,0,0,0,0,0,0,0,0,0,0,0,0,0,0,
0,0,0,0,0,0,0,0,0,0,0,0,0,4,130,130,
0,0,0,0,0,0,0,0,0,0,0,0,0,67,0,0,
0,0,0,0,0,0,0,0,0,0,0,0,0,67,0,0,
0,0,0,0,0,0,0,0,0,0,0,0,0,67,0,0,
0,0,0,0,0,0,0,0,0,0,0,0,0,67,0,0,
0,0,0,0,0,0,0,0,0,0,0,0,0,67,0,0,
0,0,0,0,0,0,0,0,0,0,0,0,0,67,0,0,
0,0,0,0,0,0,0,0,0,0,0,0,0,67,0,0,
0,0,0,0,0,0,0,0,0,0,0,0,0,67,0,0,
0,0,0,0,0,0,0,0,0,0,0,0,0,67,0,0
</chunk>
   <chunk x="16" y="-64" width="16" height="16">
0,0,0,0,0,0,0,0,0,0,0,0,0,0,0,0,
0,0,0,0,0,0,0,0,0,0,0,0,0,0,0,0,
0,0,0,0,0,0,0,0,0,0,0,0,0,0,0,0,
0,0,0,0,0,0,0,0,0,0,0,0,0,0,0,0,
0,0,0,0,0,0,0,0,0,0,0,0,0,0,0,0,
0,0,0,0,0,0,0,0,0,0,0,0,0,0,0,0,
130,130,130,130,130,130,130,130,5,0,0,0,0,0,0,0,
0,0,0,0,0,0,0,0,65,0,0,0,0,0,0,0,
0,0,0,0,0,0,0,0,65,0,0,0,0,0,0,0,
0,0,0,0,0,0,0,0,65,0,0,0,0,0,0,0,
0,0,0,0,0,0,0,0,65,0,0,0,0,0,0,0,
0,0,0,0,0,0,0,0,65,0,0,0,0,0,0,0,
0,0,0,0,0,0,0,0,65,0,0,0,0,0,0,0,
0,0,0,0,0,0,0,0,65,0,0,0,0,0,0,0,
0,0,0,0,0,0,0,0,65,0,0,0,0,0,0,0,
0,0,0,0,0,0,0,0,65,0,0,0,0,0,0,0
</chunk>
   <chunk x="80" y="-64" width="16" height="16">
0,0,0,0,0,0,0,0,74,1288,1288,0,0,0,0,0,
0,0,0,0,0,0,0,0,74,1288,1288,0,0,0,0,0,
0,0,0,0,0,0,0,0,74,1288,1288,0,0,0,0,0,
0,0,0,0,0,0,0,0,74,1290,1288,0,0,0,0,0,
0,0,0,0,0,0,0,0,74,904,906,139,9,139,9,139,
0,0,0,0,0,0,0,0,74,833,834,834,834,834,834,834,
0,0,0,0,0,0,0,0,67,0,0,0,0,0,0,0,
0,0,0,0,0,0,0,0,67,0,0,0,0,0,0,0,
0,0,0,0,0,0,0,0,67,0,0,0,0,0,0,0,
0,0,0,0,0,0,0,0,67,0,0,0,0,0,0,0,
0,0,0,0,0,0,0,0,67,0,0,0,0,0,0,0,
0,0,0,0,0,0,0,0,67,0,0,0,0,0,0,0,
0,0,0,0,0,0,0,0,67,0,0,0,0,0,0,0,
0,0,0,0,0,0,0,0,67,0,0,0,0,0,0,0,
0,0,0,0,0,0,0,0,67,0,0,0,0,0,0,0,
0,0,0,0,0,0,0,0,67,0,0,0,0,0,0,0
</chunk>
   <chunk x="96" y="-64" width="16" height="16">
0,1288,1288,72,0,0,0,0,0,0,0,0,0,0,0,0,
0,1288,1288,72,0,0,0,0,0,0,0,0,0,0,0,0,
0,1288,1288,72,0,0,0,0,0,0,0,0,0,0,0,0,
0,1288,1290,72,0,0,0,0,0,0,0,0,0,0,0,0,
9,904,906,72,0,0,0,0,0,0,0,0,0,0,0,0,
834,834,835,72,4,130,130,961,962,962,962,962,963,130,130,130,
0,0,0,65,67,0,0,0,0,0,0,0,0,0,0,0,
0,0,0,65,67,0,0,0,0,0,0,0,0,0,0,0,
0,0,0,65,67,0,0,0,0,0,0,0,0,0,0,0,
0,0,0,129,131,0,0,0,0,0,0,0,0,0,0,0,
0,0,0,0,0,0,0,0,0,0,0,0,0,0,0,0,
0,0,0,0,0,0,0,0,0,0,0,0,0,0,0,0,
0,0,0,0,0,0,0,0,0,0,0,0,0,0,0,0,
0,0,0,0,0,0,0,0,0,0,0,0,0,0,0,0,
0,0,0,0,0,0,0,0,0,0,0,0,899,0,0,0,
0,0,0,0,0,0,0,0,0,0,0,0,771,0,0,0
</chunk>
   <chunk x="112" y="-64" width="16" height="16">
0,0,0,0,0,0,0,0,0,0,0,0,0,0,0,0,
0,0,0,0,0,0,0,0,0,0,0,0,0,0,0,0,
0,0,0,0,0,0,0,0,0,0,0,0,0,0,0,0,
0,0,0,0,0,0,0,0,0,0,0,0,0,0,0,0,
0,0,0,0,0,0,0,0,0,0,0,0,0,0,0,0,
130,130,130,130,130,130,130,130,130,130,130,130,130,130,130,130,
0,0,0,0,0,0,0,0,0,0,0,0,0,0,0,0,
0,0,0,0,0,0,0,0,0,0,0,0,0,0,0,0,
0,0,0,0,0,0,0,0,0,0,0,0,0,0,0,0,
0,0,0,0,0,0,0,0,0,0,0,0,0,0,0,0,
0,0,0,0,0,0,0,0,0,0,0,0,0,0,0,0,
0,0,0,0,0,0,0,0,0,0,0,0,0,0,0,0,
0,0,0,0,0,0,0,0,0,0,0,0,0,0,0,0,
0,0,0,0,0,0,0,0,0,0,0,0,0,0,0,0,
0,0,0,0,0,0,0,0,0,0,0,0,0,0,0,0,
0,0,0,0,0,0,0,0,0,0,0,0,0,0,0,0
</chunk>
   <chunk x="128" y="-64" width="16" height="16">
0,0,0,0,0,0,0,0,0,0,0,0,0,0,0,0,
0,0,0,0,0,0,0,0,0,0,0,0,0,0,0,0,
0,0,0,0,0,0,0,0,0,0,0,0,0,0,0,0,
0,0,0,0,0,0,0,0,0,0,0,0,0,0,0,0,
0,0,0,0,0,0,0,0,0,0,0,0,0,0,0,0,
130,130,130,130,130,130,130,130,130,130,130,130,130,130,130,130,
0,0,0,0,0,0,0,0,0,0,0,0,0,0,0,0,
0,0,0,0,0,0,0,0,0,0,0,0,0,0,0,0,
0,0,0,0,0,0,0,0,0,0,0,0,0,0,0,0,
0,0,0,0,0,0,0,0,0,0,0,0,0,0,0,0,
0,0,0,0,0,0,0,0,0,0,0,0,0,0,0,0,
0,0,0,0,0,0,0,0,0,0,0,0,0,0,0,0,
0,0,0,0,0,0,0,0,0,0,0,0,0,0,0,0,
0,0,0,0,0,0,0,0,0,0,0,0,0,0,0,0,
0,0,0,0,0,0,0,0,0,0,0,0,0,0,0,0,
0,0,0,0,0,0,0,0,0,0,0,0,0,0,0,0
</chunk>
   <chunk x="144" y="-64" width="16" height="16">
0,0,0,0,0,0,67,0,0,0,0,0,66,66,66,66,
0,0,0,0,0,0,67,0,0,0,0,0,66,66,66,66,
0,0,0,0,0,0,67,0,0,0,0,0,66,66,66,66,
0,0,0,0,0,0,67,0,0,0,0,0,66,66,66,66,
0,0,0,0,0,0,67,0,0,0,0,0,66,66,66,66,
130,5,0,0,0,0,67,0,0,0,0,0,66,66,66,66,
0,65,0,0,0,0,67,0,0,0,0,0,66,66,66,66,
0,65,0,0,0,0,67,0,0,0,0,0,66,66,66,66,
0,65,133,521,521,133,67,0,0,0,0,0,66,66,66,66,
0,129,131,514,514,129,131,0,0,0,0,0,66,66,66,66,
0,0,0,0,0,0,0,0,0,0,0,0,66,66,66,66,
0,0,0,0,0,0,0,0,0,0,0,0,66,66,66,66,
0,0,0,0,0,0,0,0,0,0,0,0,66,66,66,66,
0,0,0,0,0,0,0,0,0,0,0,0,66,66,66,66,
0,0,0,0,0,0,0,0,0,1219,0,0,66,66,66,66,
0,0,0,0,0,0,0,0,0,1281,0,0,66,66,66,66
</chunk>
   <chunk x="160" y="-64" width="16" height="16">
66,66,66,66,66,66,66,66,66,66,66,66,66,66,66,66,
66,66,66,66,66,66,66,66,66,66,66,66,66,66,66,66,
66,66,66,66,66,66,66,66,66,66,66,66,66,66,66,66,
66,66,66,66,66,66,66,66,66,66,66,66,66,66,66,66,
66,66,66,66,66,66,66,66,66,66,66,66,66,66,66,66,
66,66,66,66,66,66,66,66,66,66,66,66,66,66,66,66,
66,66,66,66,66,66,66,66,66,66,66,66,66,66,66,66,
66,66,66,66,66,66,66,66,66,66,66,66,66,66,66,66,
66,66,66,66,66,66,66,66,66,66,66,66,66,66,66,66,
66,66,66,66,66,66,66,66,66,66,66,66,66,66,66,66,
66,66,66,66,66,66,66,66,66,66,66,66,66,66,66,66,
66,66,66,66,66,66,66,66,66,66,66,66,66,66,66,66,
66,66,66,66,66,66,66,66,66,66,66,66,66,66,66,66,
66,66,66,66,66,66,66,66,66,66,66,66,66,66,66,66,
66,66,66,66,66,66,66,66,66,66,66,66,66,66,66,66,
66,66,66,66,66,66,66,66,66,66,66,66,66,66,66,66
</chunk>
   <chunk x="0" y="-48" width="16" height="16">
0,0,0,0,0,0,0,0,0,0,0,0,0,67,0,0,
0,0,0,0,0,0,0,0,0,0,0,0,0,67,0,0,
0,0,0,0,0,0,0,0,0,0,0,0,0,67,0,0,
0,0,0,0,0,0,0,0,0,0,0,0,0,67,0,0,
0,0,0,0,0,0,0,0,0,0,0,0,0,67,0,0,
0,0,0,0,0,0,0,0,0,0,0,0,0,67,0,0,
0,0,0,0,0,0,0,0,0,0,0,0,0,67,0,0,
0,0,0,0,0,0,0,0,0,0,0,0,0,67,0,0,
0,0,0,0,0,0,0,0,0,0,0,0,0,67,0,0,
0,0,0,0,0,0,0,0,0,0,0,0,0,67,0,0,
0,0,0,0,0,0,0,0,0,0,0,0,0,67,0,0,
0,0,0,0,0,0,0,0,0,0,0,0,0,67,0,0,
0,0,0,0,0,0,0,0,0,0,0,0,0,67,0,0,
0,0,0,0,0,0,0,0,0,0,0,0,0,67,0,0,
0,0,0,0,0,0,0,0,0,0,0,0,0,67,0,0,
0,0,0,0,0,0,0,0,0,0,0,0,0,67,0,0
</chunk>
   <chunk x="16" y="-48" width="16" height="16">
0,0,0,0,0,0,0,0,65,521,521,521,521,521,521,521,
0,0,0,0,0,0,0,0,836,514,514,514,514,514,514,514,
0,0,0,0,0,0,0,0,0,0,0,0,0,0,0,0,
0,0,0,0,0,0,0,0,0,0,0,0,0,0,0,0,
0,0,0,0,0,0,0,0,0,0,0,0,0,0,0,0,
0,0,0,0,0,0,0,0,0,0,0,0,0,0,0,0,
0,0,0,0,0,0,0,0,964,386,386,386,387,0,0,0,
0,0,0,0,0,0,0,0,65,4,130,130,961,0,0,0,
0,0,0,0,0,0,0,0,65,67,0,0,0,0,0,0,
0,0,0,0,0,0,0,0,65,67,0,0,0,0,0,0,
0,0,0,0,0,0,0,0,65,67,0,0,0,0,0,0,
0,0,0,0,0,0,0,0,129,131,0,0,0,0,0,0,
0,0,0,0,0,0,0,0,0,0,0,0,0,0,0,0,
0,0,0,0,0,0,0,0,0,0,0,0,0,0,0,0,
0,0,0,0,0,0,0,0,0,0,0,0,0,0,0,0,
0,0,0,0,0,0,0,0,0,0,0,0,0,0,0,0
</chunk>
   <chunk x="32" y="-48" width="16" height="16">
521,521,521,521,521,521,521,521,521,521,521,521,521,521,521,521,
514,514,514,514,514,514,514,514,514,514,514,514,514,514,514,514,
0,0,0,0,0,0,0,0,0,0,0,0,0,0,0,0,
0,0,0,0,0,0,0,0,0,0,0,0,0,0,0,0,
0,0,0,0,0,0,0,0,0,0,0,0,0,0,0,0,
0,0,0,0,0,0,0,0,0,0,0,0,0,0,0,0,
0,385,386,386,386,386,386,387,0,0,385,386,386,386,386,386,
0,963,130,130,130,130,130,131,0,0,129,130,130,130,130,130,
0,0,0,0,0,0,0,0,961,963,0,0,0,0,0,0,
0,0,0,0,0,0,0,0,513,515,0,0,0,0,0,0,
0,0,0,0,0,0,0,0,0,0,0,0,0,0,0,0,
0,0,0,0,0,0,0,0,0,0,0,0,0,0,0,0,
0,0,0,0,0,0,0,0,0,0,0,0,0,0,0,0,
0,0,0,0,0,0,0,0,0,0,0,0,0,0,0,0,
0,0,0,0,0,0,0,0,0,0,0,0,0,0,0,0,
0,0,0,0,0,0,0,0,0,0,0,0,0,0,0,0
</chunk>
   <chunk x="48" y="-48" width="16" height="16">
521,521,521,521,521,521,521,521,521,521,521,521,521,521,521,521,
514,514,514,514,514,514,514,514,514,514,514,514,514,514,514,514,
0,0,0,0,0,0,0,0,0,0,0,0,0,0,0,0,
0,0,0,0,0,0,0,0,0,0,0,0,0,0,0,0,
0,0,0,0,0,0,0,0,0,0,0,0,0,0,0,0,
0,0,0,0,0,0,0,0,0,0,0,0,0,0,0,0,
386,386,386,386,386,386,386,386,386,386,386,386,386,386,387,0,
130,1290,130,130,130,130,130,130,130,130,130,130,130,130,961,0,
0,1219,0,0,0,0,0,0,0,0,0,0,0,0,0,0,
0,1217,0,0,0,0,0,0,0,0,0,0,0,0,0,0,
0,0,0,0,0,0,0,0,0,0,0,0,0,0,0,0,
0,0,0,0,0,0,0,0,0,0,0,0,0,0,0,0,
0,0,0,0,0,0,0,0,0,0,0,0,0,0,0,0,
0,0,0,0,0,0,0,0,0,0,0,0,0,0,0,0,
0,0,0,0,0,0,0,0,0,0,0,0,0,0,0,0,
0,0,0,0,0,0,0,0,0,0,0,0,0,0,385,386
</chunk>
   <chunk x="64" y="-48" width="16" height="16">
521,521,521,521,521,521,521,521,521,521,521,521,521,521,521,521,
514,514,514,514,514,514,514,514,514,514,514,514,514,514,514,514,
0,0,0,0,0,0,0,0,0,0,0,0,0,0,0,0,
0,0,0,0,0,0,0,0,0,0,0,0,0,0,0,0,
0,0,0,0,0,0,0,0,0,0,0,0,0,0,0,0,
0,0,0,0,0,0,0,0,0,0,0,0,0,0,0,0,
0,0,0,385,386,386,386,386,386,386,386,386,386,386,386,386,
0,0,0,963,130,130,5,4,130,130,130,130,130,130,5,458,
0,0,0,0,0,0,65,67,0,0,0,0,0,0,836,514,
0,0,0,0,0,0,65,67,0,0,0,0,0,0,0,0,
0,0,0,0,0,0,65,67,0,0,0,0,0,0,0,0,
0,0,0,0,0,0,129,131,0,0,0,0,0,0,0,0,
0,0,0,0,0,0,0,0,0,0,0,0,0,0,0,0,
0,0,0,0,0,0,0,0,0,0,0,0,0,0,964,386,
0,0,0,0,0,0,0,0,0,0,0,0,0,0,65,394,
386,0,0,0,0,0,0,0,0,0,0,0,0,0,65,458
</chunk>
   <chunk x="80" y="-48" width="16" height="16">
521,521,521,396,396,0,0,0,67,0,0,0,0,0,0,0,
514,514,514,389,456,0,0,0,67,0,0,0,0,0,0,0,
0,0,0,449,456,0,0,0,67,0,0,0,0,0,0,0,
0,0,0,449,456,0,0,0,67,0,0,0,0,0,0,0,
0,0,0,449,456,0,0,0,67,0,0,0,0,0,0,0,
0,0,0,449,456,0,0,0,67,0,0,0,0,0,0,0,
387,0,0,449,456,0,0,0,67,0,0,0,0,0,0,0,
451,0,0,449,520,521,521,521,67,0,0,0,0,0,0,0,
515,0,0,513,514,514,514,514,837,0,0,0,0,0,0,0,
0,0,0,0,0,0,0,0,901,0,0,0,0,0,0,0,
0,0,0,0,0,0,0,0,901,0,0,0,0,0,0,0,
0,0,0,0,0,0,0,0,901,0,0,0,0,0,0,0,
0,0,0,0,0,0,0,0,901,0,0,0,0,0,0,0,
387,0,0,385,386,386,386,386,965,0,0,0,0,0,0,0,
451,0,0,449,392,393,393,393,67,0,0,0,0,0,0,0,
451,0,0,449,456,0,0,0,67,0,0,0,0,0,0,0
</chunk>
   <chunk x="96" y="-48" width="16" height="16">
0,0,0,1,2,132,2,132,2,132,2,132,9,132,2,132,
0,0,0,65,0,0,0,0,0,0,0,0,0,0,0,0,
0,0,0,65,0,0,0,0,0,0,0,0,0,0,0,0,
0,0,0,65,0,0,0,0,0,0,0,0,0,0,0,0,
0,0,0,65,0,0,0,0,0,0,0,0,0,0,0,0,
0,0,0,65,0,0,0,0,0,0,0,0,0,0,0,0,
0,0,0,65,0,0,0,0,0,0,0,0,0,0,0,0,
0,0,0,65,0,0,0,0,0,0,0,0,0,0,0,0,
0,0,0,65,0,0,0,0,0,0,0,0,0,0,0,0,
0,0,0,65,0,0,0,0,0,0,0,0,0,0,0,0,
0,0,0,65,0,0,0,0,0,0,0,0,0,0,0,0,
0,0,0,65,0,0,0,0,0,0,0,0,0,0,0,0,
0,0,0,65,0,0,0,0,0,0,0,0,0,0,0,0,
0,0,0,65,0,0,0,0,0,0,0,0,0,0,0,0,
0,0,0,65,0,0,0,0,0,0,0,0,0,0,0,0,
0,0,0,65,0,0,0,0,0,0,0,0,0,0,0,0
</chunk>
   <chunk x="112" y="-48" width="16" height="16">
2,132,2,132,2,132,2,132,2,132,2,132,2,132,2,132,
0,0,0,0,0,0,0,0,0,0,0,0,0,0,0,0,
0,0,0,0,0,0,0,0,0,0,0,0,0,0,0,0,
0,0,0,0,0,0,0,0,0,0,0,0,0,0,0,0,
0,0,0,0,0,0,0,0,0,0,0,0,0,0,0,0,
0,0,0,0,0,0,0,0,0,0,0,0,0,0,0,0,
0,0,0,0,0,0,0,0,0,0,0,0,0,0,0,0,
0,0,0,0,0,0,0,0,0,0,0,0,0,0,0,0,
0,0,0,0,0,0,0,0,0,0,0,0,0,0,0,0,
0,0,0,0,0,0,0,0,0,0,0,0,0,0,0,0,
0,0,0,0,0,0,0,0,0,0,0,0,0,0,0,0,
0,0,0,0,0,0,0,0,0,0,0,0,0,0,0,0,
0,0,0,0,0,0,0,0,0,0,0,0,0,0,0,0,
0,0,0,0,0,0,0,0,0,0,0,0,0,0,0,0,
0,0,0,0,0,0,0,0,0,0,0,0,0,0,0,0,
0,0,0,0,0,0,0,0,0,0,0,0,0,0,0,0
</chunk>
   <chunk x="128" y="-48" width="16" height="16">
2,132,2,132,2,132,2,132,2,132,2,132,2,132,2,132,
0,0,0,0,0,0,0,0,0,0,0,0,0,0,0,0,
0,0,0,0,0,0,0,0,0,0,0,0,0,0,0,0,
0,0,0,0,0,0,0,0,0,0,0,0,0,0,0,0,
0,0,0,0,0,0,0,0,0,0,0,0,0,0,0,0,
0,0,0,0,0,0,0,0,0,0,0,0,0,0,0,0,
0,0,0,0,0,0,0,0,0,0,0,0,0,0,0,0,
0,0,0,0,0,0,0,0,0,0,0,0,0,0,0,0,
0,0,0,0,0,0,0,0,0,0,0,0,0,0,0,0,
0,0,0,0,0,0,0,0,0,0,0,0,0,0,0,0,
0,0,0,0,0,0,0,0,0,0,0,0,0,0,0,0,
0,0,0,0,0,0,0,0,0,0,0,0,0,0,0,0,
0,0,0,0,0,0,0,0,0,0,0,0,0,0,0,0,
0,0,0,0,0,0,0,0,0,0,0,0,0,0,0,0,
0,0,0,0,0,0,0,0,0,0,0,0,0,0,0,0,
0,0,0,0,0,0,0,0,0,0,0,0,0,0,0,0
</chunk>
   <chunk x="144" y="-48" width="16" height="16">
2,132,3,386,386,1,3,0,0,0,0,0,66,66,66,66,
0,0,133,393,393,133,67,0,0,0,0,0,66,66,66,66,
0,0,0,0,0,0,67,0,0,0,0,0,66,66,66,66,
0,0,0,0,0,0,67,0,0,0,0,0,66,66,66,66,
0,0,0,0,0,0,67,0,0,0,0,0,66,66,66,66,
0,0,0,0,0,0,67,0,0,0,0,0,66,66,66,66,
0,0,0,0,0,0,67,0,0,0,0,0,66,66,66,66,
0,0,0,0,0,0,67,0,0,0,0,0,66,66,66,66,
0,0,0,0,0,0,67,0,0,0,0,0,66,66,66,66,
0,0,0,0,0,0,67,0,0,0,0,0,66,66,66,66,
0,0,0,0,0,0,67,0,0,0,0,0,66,66,66,66,
0,0,0,0,0,0,67,0,0,0,0,0,66,66,66,66,
0,0,0,0,0,0,67,0,0,0,0,0,66,66,66,66,
0,0,0,0,0,0,67,0,0,0,0,0,66,66,66,66,
0,0,0,0,0,0,67,0,0,0,0,0,66,66,66,66,
0,0,0,0,0,0,67,0,0,0,0,0,66,66,66,66
</chunk>
   <chunk x="160" y="-48" width="16" height="16">
66,66,66,66,66,66,66,66,66,66,66,66,66,66,66,66,
66,66,66,66,66,66,66,66,66,66,66,66,66,66,66,66,
66,66,66,66,66,66,66,66,66,66,66,66,66,66,66,66,
66,66,66,66,66,66,66,66,66,66,66,66,66,66,66,66,
66,66,66,66,66,66,66,66,66,66,66,66,66,66,66,66,
66,66,66,66,66,66,66,66,66,66,66,66,66,66,66,66,
66,66,66,66,66,66,66,66,66,66,66,66,66,66,66,66,
66,66,66,66,66,66,66,66,66,66,66,66,66,66,66,66,
66,66,66,66,66,66,66,66,66,66,66,66,66,66,66,66,
66,66,66,66,66,66,66,66,66,66,66,66,66,66,66,66,
66,66,66,66,66,66,66,66,66,66,66,66,66,66,66,66,
66,66,66,66,66,66,66,66,66,66,66,66,66,66,66,66,
66,66,66,66,66,66,66,66,66,66,66,66,66,66,66,66,
66,66,66,66,66,66,66,66,66,66,66,66,66,66,66,66,
66,66,66,66,66,66,66,66,66,66,66,66,66,66,66,66,
66,66,66,66,66,66,705,706,706,706,706,706,706,706,706,707
</chunk>
   <chunk x="0" y="-32" width="16" height="16">
0,0,0,0,0,0,0,0,0,0,0,0,0,67,0,0,
0,0,0,0,0,0,0,0,0,0,0,0,0,67,0,0,
0,0,0,0,0,0,0,0,0,0,0,0,0,67,0,0,
0,0,0,0,0,0,0,0,0,0,0,0,0,67,0,0,
0,0,0,0,0,0,0,0,0,0,0,0,0,67,0,0,
0,0,0,0,0,0,0,0,0,0,0,0,0,67,0,0,
0,0,0,0,0,0,0,0,0,0,0,0,0,67,0,0,
0,0,0,0,0,0,0,0,0,0,0,0,0,67,0,0,
0,0,0,0,0,0,0,0,0,0,0,0,0,67,0,0,
0,0,0,0,0,0,0,0,0,0,0,0,0,67,0,0,
0,0,0,0,0,0,0,0,0,0,0,0,0,67,0,0,
0,0,0,0,0,0,0,0,0,0,0,0,0,67,0,0,
0,0,0,0,0,0,0,0,0,0,0,0,0,67,0,0,
0,0,0,0,0,0,0,0,0,0,0,0,0,67,0,0,
0,0,0,0,0,0,0,0,0,0,0,0,0,67,0,0,
0,0,0,0,0,0,0,0,0,0,0,0,0,67,0,0
</chunk>
   <chunk x="16" y="-32" width="16" height="16">
0,0,0,0,0,0,0,0,0,0,0,0,1220,0,0,0,
0,0,0,0,0,0,0,0,0,0,0,0,1283,0,0,0,
0,0,0,0,0,0,0,0,1,2,132,2,132,2,132,2,
0,0,0,0,0,0,0,0,65,521,521,521,521,521,521,521,
0,0,0,0,0,0,0,0,836,514,514,514,514,514,514,514,
0,0,0,0,0,0,0,0,900,0,0,0,0,0,0,0,
0,0,0,0,0,0,0,0,900,0,0,0,0,0,0,0,
0,0,0,0,0,0,0,0,900,0,0,0,0,0,0,0,
0,0,0,0,0,0,0,0,900,0,0,0,0,0,0,0,
0,0,0,0,0,0,0,0,964,386,386,386,386,387,0,0,
0,0,0,0,0,0,0,0,65,393,4,130,130,961,0,0,
0,0,0,0,0,0,0,0,65,0,67,0,0,0,0,0,
0,0,0,0,0,0,0,0,65,0,67,0,0,0,0,0,
0,0,0,0,0,0,0,0,65,0,67,0,0,0,0,0,
0,0,0,0,0,0,0,0,65,0,837,386,386,387,0,0,
0,0,0,0,0,0,0,0,65,0,965,514,389,451,0,0
</chunk>
   <chunk x="32" y="-32" width="16" height="16">
0,0,0,0,0,0,0,0,0,0,0,0,0,0,0,0,
0,0,0,0,0,0,0,0,0,0,0,0,0,0,0,0,
132,2,132,2,132,2,132,2,132,2,132,2,132,2,132,2,
521,521,521,521,521,521,521,521,521,521,521,521,521,521,521,521,
514,514,514,514,514,514,514,514,514,514,514,514,514,514,514,514,
0,0,0,0,0,0,0,0,0,0,0,0,0,0,0,0,
0,0,0,0,0,0,0,0,0,0,0,0,0,0,0,0,
0,0,0,0,0,0,0,0,0,0,0,0,0,0,0,0,
0,0,0,0,0,0,0,0,0,0,0,0,0,0,0,0,
0,0,385,386,386,386,386,386,386,386,386,386,386,386,386,386,
0,0,963,130,130,130,130,130,130,130,130,130,130,130,130,130,
0,0,0,0,0,0,0,0,0,0,0,0,0,0,0,0,
0,0,0,0,0,0,0,0,0,0,0,0,0,0,0,0,
0,0,0,0,0,0,0,0,0,0,0,0,0,0,0,0,
0,0,0,0,0,0,0,0,0,0,0,0,0,0,0,0,
0,0,0,0,0,0,0,0,0,0,0,0,0,0,0,0
</chunk>
   <chunk x="48" y="-32" width="16" height="16">
0,0,0,0,0,0,0,0,0,0,0,0,0,0,513,452,
0,0,0,0,0,0,0,0,0,0,0,0,0,386,386,386,
132,2,132,2,132,2,132,2,132,2,132,2,132,2,2,2,
521,521,521,521,521,521,521,521,521,521,521,521,521,521,521,521,
514,514,514,514,514,514,514,514,514,514,514,514,514,514,514,514,
0,0,0,0,0,0,0,0,0,0,0,0,0,0,0,0,
0,0,0,0,0,0,0,0,0,0,0,0,0,0,0,0,
0,0,0,0,0,0,0,0,0,0,0,0,0,0,0,0,
0,0,0,0,0,0,0,0,0,0,0,0,0,0,0,0,
386,386,386,386,386,386,386,386,386,386,386,386,386,386,386,387,
130,130,130,130,130,130,130,130,130,130,130,130,130,130,130,961,
0,0,0,0,0,0,0,0,0,0,0,0,0,0,0,0,
0,0,0,0,0,0,0,0,0,0,0,0,0,0,0,0,
0,0,0,0,0,0,0,0,0,0,0,0,0,0,0,0,
0,0,0,0,0,0,0,0,0,0,0,0,0,0,0,0,
0,0,0,0,0,0,0,0,0,0,0,0,0,0,0,0
</chunk>
   <chunk x="64" y="-32" width="16" height="16">
386,387,0,0,0,0,0,0,0,0,0,0,0,0,65,458,
453,515,0,0,0,0,0,0,0,0,0,0,0,0,65,458,
132,2,132,2,132,2,132,2,132,2,132,2,132,2,69,458,
521,521,521,521,521,521,521,521,521,521,521,521,521,521,521,522,
514,514,514,514,514,514,514,514,514,514,514,514,514,514,514,514,
0,0,0,0,0,0,0,0,0,0,0,0,0,0,0,0,
0,0,0,0,0,0,0,0,0,0,0,0,0,0,0,0,
0,0,0,0,0,0,0,0,0,0,0,0,0,0,0,0,
0,0,0,0,0,0,0,0,0,0,0,0,0,0,0,0,
0,0,0,0,385,386,386,386,386,386,386,387,0,0,0,0,
0,0,0,0,963,130,130,5,4,130,130,961,962,962,962,962,
0,0,0,0,0,0,0,65,67,0,0,0,0,0,0,0,
0,0,0,0,0,0,0,65,67,0,0,0,0,0,0,0,
0,0,0,0,0,0,0,65,67,0,0,0,0,0,0,0,
0,0,0,0,0,0,0,65,67,0,0,0,0,0,0,0,
0,0,0,0,0,0,0,65,67,0,0,0,0,0,0,0
</chunk>
   <chunk x="80" y="-32" width="16" height="16">
451,0,0,449,456,0,0,0,67,0,0,0,0,0,0,0,
451,0,0,449,456,0,0,0,67,0,0,0,0,0,0,0,
451,0,0,449,456,0,0,0,67,0,0,0,0,0,0,0,
451,0,0,449,456,0,0,0,67,0,0,0,0,0,0,0,
515,0,0,449,456,0,0,0,67,0,0,0,0,0,0,0,
0,0,0,449,456,0,0,0,67,0,0,0,0,0,0,0,
0,0,0,449,456,0,0,0,67,0,0,0,0,0,0,0,
0,0,0,449,456,0,0,0,67,0,0,0,0,0,0,0,
0,0,0,449,456,0,0,0,67,0,0,0,0,0,0,0,
385,386,386,453,456,0,0,0,67,0,0,0,0,0,0,0,
963,130,130,5,460,0,0,0,67,0,0,0,0,0,0,0,
0,0,0,65,0,0,0,0,67,0,0,0,0,0,0,0,
0,0,0,65,0,0,0,0,67,0,0,0,0,0,0,0,
0,0,0,65,0,0,0,0,67,0,0,0,0,0,0,0,
0,0,0,65,0,0,0,0,67,0,0,0,0,0,0,0,
0,0,0,65,0,0,0,0,67,0,0,0,0,0,0,0
</chunk>
   <chunk x="96" y="-32" width="16" height="16">
0,0,0,65,0,0,0,0,0,0,0,0,0,0,0,0,
0,0,0,65,0,0,0,0,0,0,0,0,0,0,0,0,
0,0,0,65,0,0,0,0,0,0,0,0,0,0,0,0,
0,0,0,65,0,0,0,0,0,0,0,0,0,0,0,0,
0,0,0,65,0,0,0,0,0,0,0,0,0,0,0,0,
0,0,0,65,0,0,0,0,0,0,0,0,0,0,0,0,
0,0,0,65,0,0,0,0,0,0,0,0,0,0,0,0,
0,0,0,65,0,0,0,0,0,0,0,0,0,0,0,0,
0,0,0,65,0,0,0,0,0,0,0,0,0,0,0,0,
0,0,0,65,0,0,0,0,0,0,0,0,0,0,0,0,
0,0,0,65,0,0,0,0,0,0,0,0,0,0,0,0,
0,0,0,65,0,0,0,0,0,0,0,0,0,0,0,0,
0,0,0,65,0,0,0,0,0,0,0,0,0,0,0,0,
0,0,0,65,0,0,0,0,0,0,0,0,0,0,0,0,
0,0,0,65,0,0,0,0,0,0,0,0,0,0,0,0,
0,0,0,65,0,0,0,0,0,0,0,0,0,0,0,0
</chunk>
   <chunk x="144" y="-32" width="16" height="16">
0,0,0,0,0,0,67,0,0,0,0,0,66,66,66,66,
0,0,0,0,0,0,67,0,0,0,0,0,836,386,386,386,
0,0,0,0,0,0,67,0,0,0,0,0,900,514,514,514,
0,0,0,0,0,0,67,0,0,0,0,0,0,0,0,0,
0,0,0,0,0,0,67,0,0,0,0,0,0,0,0,0,
0,0,0,0,0,0,67,0,0,0,0,0,0,0,0,0,
0,0,0,0,0,0,67,0,0,0,0,0,0,0,0,0,
0,0,0,0,0,0,67,0,0,0,0,0,0,0,0,0,
0,0,0,0,0,0,67,0,0,0,0,0,0,0,0,0,
0,0,0,0,0,0,74,706,706,706,706,706,900,386,386,386,
0,0,0,0,0,0,0,0,0,0,0,0,971,521,521,521,
0,0,0,0,0,0,0,0,0,0,0,0,0,0,0,0,
0,0,0,0,0,0,0,0,0,0,0,0,0,0,0,0,
0,0,0,0,0,0,0,0,0,0,0,0,0,0,0,0,
0,0,0,0,0,0,0,0,0,0,0,0,0,0,0,0,
0,0,0,0,0,0,0,0,0,0,0,0,0,0,0,0
</chunk>
   <chunk x="160" y="-32" width="16" height="16">
66,66,66,66,66,66,769,4,130,130,130,130,130,130,5,778,
386,386,386,386,386,386,769,67,0,0,0,0,0,0,65,778,
514,514,514,514,514,514,961,963,0,0,0,0,0,0,961,970,
0,0,0,0,0,0,0,0,0,0,0,0,0,0,1281,1288,
0,0,0,0,0,0,0,0,0,0,0,0,0,0,1281,1288,
0,0,0,0,0,0,0,0,0,0,0,0,0,0,1281,1288,
0,0,0,0,0,0,0,0,0,0,0,0,0,0,1281,1288,
0,0,0,0,0,0,0,0,0,0,0,0,0,0,1281,1288,
0,0,0,0,0,0,0,0,0,0,0,0,0,0,1283,1290,
386,386,386,386,386,386,897,899,132,2,132,2,132,2,897,906,
521,521,521,521,521,521,840,841,841,66,66,66,66,66,66,842,
0,0,0,0,0,0,0,0,0,0,0,0,0,0,0,0,
0,0,0,0,0,0,0,0,0,0,0,0,0,0,0,0,
0,0,0,0,0,0,0,0,0,0,0,0,0,0,0,0,
0,0,0,0,0,0,0,0,0,0,0,0,0,0,0,0,
0,0,0,0,0,0,0,0,0,0,0,0,0,0,0,0
</chunk>
   <chunk x="-16" y="-16" width="16" height="16">
0,0,0,0,0,0,0,0,0,0,0,0,0,0,0,0,
0,0,0,0,0,0,0,0,0,0,0,0,0,0,0,0,
0,0,0,0,0,0,0,0,0,0,0,0,0,0,0,0,
0,0,0,0,0,0,0,0,0,0,0,0,0,0,0,0,
0,0,0,0,0,0,0,0,0,0,0,0,0,0,0,0,
0,4,130,130,130,130,130,130,130,130,130,130,130,130,130,130,
0,67,0,0,0,0,449,452,449,451,769,770,770,771,0,385,
0,67,0,0,0,0,513,514,449,452,769,770,770,771,386,453,
0,67,0,0,0,0,0,0,513,514,769,770,770,771,514,514,
0,67,0,0,0,0,0,0,0,0,961,962,962,963,0,0,
0,67,0,0,0,0,0,0,0,0,1025,1025,1026,1027,0,0,
0,67,0,0,0,0,0,0,0,0,0,0,0,0,0,0,
0,67,0,0,0,0,0,0,0,0,0,0,0,0,0,0,
0,67,0,0,0,0,0,0,0,0,0,0,0,0,0,0,
0,67,0,0,0,0,0,0,0,0,0,0,0,0,0,0,
0,67,0,0,0,0,0,0,0,0,897,898,898,899,0,0
</chunk>
   <chunk x="0" y="-16" width="16" height="16">
0,0,0,0,0,0,0,0,0,0,0,0,0,67,0,0,
0,0,0,0,0,0,0,0,0,0,0,0,0,67,0,0,
0,0,0,0,0,0,0,0,0,0,0,0,0,67,0,0,
0,0,0,0,0,0,0,0,0,0,0,0,0,67,0,0,
0,0,0,0,0,0,0,0,0,0,0,0,0,67,0,0,
130,130,130,961,962,962,963,130,5,0,0,0,0,67,0,0,
453,451,0,0,0,0,0,0,65,0,0,0,0,67,705,706,
388,515,0,0,0,0,0,0,65,0,0,0,0,74,776,4,
515,0,0,0,0,0,0,0,65,133,521,521,133,74,776,67,
0,0,0,0,0,0,0,0,129,131,514,514,129,131,961,963,
0,0,0,0,0,0,0,0,0,0,0,0,0,0,0,0,
0,0,0,0,0,0,0,0,0,0,0,0,0,0,0,0,
0,0,0,0,0,0,0,0,0,0,0,0,0,0,0,0,
0,0,0,0,0,0,0,0,0,0,0,0,0,0,0,0,
0,0,0,0,0,0,0,0,0,0,0,0,0,0,0,0,
0,0,0,0,0,0,0,0,0,0,0,0,0,0,0,0
</chunk>
   <chunk x="16" y="-16" width="16" height="16">
0,0,0,0,0,0,0,0,65,0,1164,1221,1154,451,0,0,
0,0,0,0,0,0,0,0,65,0,74,1153,1218,451,0,0,
0,0,0,0,0,0,0,0,65,0,74,1281,712,706,707,0,
0,0,0,0,0,0,0,0,65,0,74,1281,968,962,963,0,
0,0,0,0,0,0,0,0,65,0,74,1155,1157,770,771,0,
0,0,0,0,0,0,0,0,65,0,74,1281,776,770,771,0,
837,0,0,0,0,836,706,707,65,0,74,1217,1157,770,771,0,
0,0,0,0,129,130,5,778,72,0,67,0,904,898,899,0,
0,0,0,0,0,0,65,778,72,0,68,132,9,139,9,132,
0,0,0,0,0,0,961,970,72,0,0,0,0,0,0,0,
0,0,0,0,0,0,1281,1288,72,0,0,0,0,0,0,0,
0,0,0,0,0,0,1281,1288,72,0,0,0,0,0,0,0,
0,0,0,0,0,0,1281,1288,72,0,0,0,0,0,0,0,
0,0,0,385,386,387,1281,1288,72,0,0,0,0,0,0,0,
0,0,385,386,453,451,1281,1288,72,0,0,0,0,0,0,0,
0,385,453,388,514,515,1283,1290,72,0,0,0,0,0,0,0
</chunk>
   <chunk x="32" y="-16" width="16" height="16">
0,0,0,0,0,0,0,0,0,0,0,0,0,0,0,0,
0,0,0,0,0,0,0,0,0,0,0,0,0,0,0,0,
0,0,0,0,0,0,0,0,0,0,0,0,0,0,0,0,
0,0,0,0,0,0,0,0,0,0,0,0,0,0,0,0,
0,0,0,0,0,0,0,0,0,0,0,0,0,0,0,0,
0,0,0,0,0,0,0,0,0,0,0,0,0,0,0,0,
0,0,0,0,0,0,0,0,0,0,0,0,0,0,0,0,
0,0,0,0,0,0,0,0,0,0,0,0,0,0,0,0,
2,132,2,132,2,132,2,132,2,132,2,132,2,132,2,132,
0,0,0,0,0,0,0,0,0,0,0,0,0,0,0,0,
0,0,0,0,0,0,0,0,0,0,0,0,0,0,0,0,
0,0,0,0,0,0,0,0,0,0,0,0,0,0,0,0,
0,0,0,0,0,0,0,0,0,0,0,0,0,0,0,0,
0,643,0,0,0,0,0,0,0,0,0,0,0,0,0,0,
0,0,0,0,0,0,0,0,0,0,0,0,0,0,0,0,
0,0,0,0,0,0,0,0,0,0,0,0,0,0,0,0
</chunk>
   <chunk x="48" y="-16" width="16" height="16">
0,0,0,0,0,0,0,0,0,0,0,0,0,0,0,0,
0,0,0,0,0,0,0,0,0,0,0,0,0,0,0,0,
0,0,0,0,0,0,0,0,0,0,0,0,0,0,0,0,
0,0,0,0,0,0,0,0,0,0,0,0,0,0,0,0,
0,0,0,0,0,0,0,0,0,0,0,0,0,0,0,0,
0,0,0,0,0,0,0,0,0,0,0,0,0,0,0,0,
0,0,0,0,0,0,0,0,0,0,0,0,0,0,0,0,
0,0,0,0,0,0,0,0,0,0,0,0,0,0,0,0,
2,132,2,132,2,132,2,132,2,132,2,132,2,132,2,132,
0,0,0,0,0,0,0,0,0,0,0,0,0,0,0,0,
0,0,0,0,0,0,0,0,0,0,0,0,0,0,0,0,
0,0,0,0,0,0,0,0,0,0,0,0,0,0,0,0,
0,0,0,0,0,0,0,0,0,0,0,0,0,0,0,0,
0,0,0,0,0,0,0,0,0,0,0,0,0,0,0,0,
0,0,0,0,0,0,0,0,0,0,0,0,0,0,0,0,
0,0,0,0,0,0,0,0,0,0,0,0,0,0,0,0
</chunk>
   <chunk x="64" y="-16" width="16" height="16">
0,0,0,0,0,0,0,65,67,0,0,0,0,0,0,0,
0,0,0,0,0,0,0,129,131,0,0,0,0,0,0,0,
0,0,0,0,0,0,0,0,0,0,0,0,0,0,0,0,
0,0,0,0,0,0,0,0,0,0,0,0,0,0,0,0,
0,0,0,0,0,0,0,0,0,0,0,0,0,0,0,0,
0,0,0,0,0,0,0,0,0,0,0,0,0,0,0,0,
0,0,0,0,0,0,0,0,0,0,0,0,0,0,0,0,
0,0,0,0,0,0,0,0,0,0,0,0,0,0,0,0,
2,132,2,132,2,132,2,132,2,132,2,132,2,132,2,132,
0,0,0,0,0,0,0,0,0,0,0,0,0,0,0,0,
0,0,0,0,0,0,0,0,0,0,0,0,0,0,0,0,
0,0,0,0,0,0,0,0,0,0,0,0,0,0,0,0,
0,0,0,0,0,0,0,0,0,0,0,0,0,0,0,0,
0,0,0,0,0,0,0,0,0,0,0,0,0,0,0,0,
0,0,0,0,0,0,0,0,0,0,0,0,0,0,0,0,
0,0,0,0,0,0,0,0,0,0,0,0,0,0,0,0
</chunk>
   <chunk x="80" y="-16" width="16" height="16">
0,0,0,65,133,521,521,133,67,0,0,0,0,0,0,0,
0,0,0,129,131,514,514,129,131,0,0,0,0,0,0,0,
0,0,0,0,0,0,0,0,0,0,0,0,0,0,0,0,
0,0,0,0,0,0,0,0,0,0,0,0,0,0,0,0,
0,0,0,0,0,0,0,0,0,0,0,0,0,0,0,0,
0,0,0,0,0,0,0,0,0,0,0,0,0,0,0,0,
0,0,0,0,0,0,0,0,0,0,0,0,0,0,0,0,
0,0,0,0,0,0,0,0,0,0,0,0,0,0,0,0,
2,132,2,132,3,386,386,1,3,0,0,0,0,0,0,0,
0,0,0,0,133,393,393,133,67,0,0,0,0,0,0,0,
0,0,0,0,0,0,0,0,67,0,0,0,0,0,0,0,
0,0,0,0,0,0,0,0,67,0,0,0,0,0,0,0,
0,0,0,0,0,0,0,0,67,0,0,0,0,0,0,0,
0,0,0,0,0,0,0,0,67,0,0,0,0,0,0,0,
0,0,0,0,0,0,0,0,67,0,0,0,0,0,0,0,
0,0,0,0,0,0,0,0,67,0,0,0,0,0,0,0
</chunk>
   <chunk x="96" y="-16" width="16" height="16">
0,0,0,65,0,0,0,0,0,0,0,0,0,0,0,0,
0,0,0,65,0,0,0,0,0,0,0,0,0,0,0,0,
0,0,0,65,0,0,0,0,0,0,0,0,0,0,0,0,
0,0,0,65,0,0,0,0,0,0,0,0,0,0,0,0,
0,0,0,65,0,0,0,0,0,0,0,0,0,0,0,0,
0,0,0,65,0,0,0,0,0,0,0,0,0,0,0,0,
0,0,0,65,0,0,0,0,0,0,0,0,0,0,0,0,
0,0,0,65,0,0,0,0,0,0,0,0,0,0,0,0,
0,0,0,65,0,0,0,0,0,0,0,0,0,0,0,0,
0,0,0,65,0,0,0,0,0,0,0,0,0,0,0,0,
0,0,0,65,0,0,0,0,0,0,0,0,0,0,0,0,
0,0,0,65,0,0,0,0,0,0,0,0,0,0,0,0,
0,0,0,65,0,0,0,0,0,0,0,0,0,0,0,0,
0,0,0,65,0,0,0,0,0,0,0,0,0,0,0,0,
0,0,0,65,0,0,0,0,0,0,0,0,0,0,0,0,
0,0,0,65,0,0,0,0,0,0,0,0,0,0,0,0
</chunk>
   <chunk x="-16" y="0" width="16" height="16">
0,68,132,2,132,2,132,2,132,2,139,9,139,9,132,2,
0,0,0,0,0,0,0,0,0,0,0,0,0,0,0,0,
0,0,0,0,0,0,0,0,0,0,0,0,0,0,0,0,
0,0,0,0,0,0,0,0,0,0,0,0,0,0,0,0,
0,0,0,0,0,0,0,0,0,0,0,0,0,0,0,0,
0,0,0,0,0,0,0,0,0,0,0,0,0,0,0,0,
0,0,0,0,0,0,0,0,0,0,0,0,0,0,0,0,
0,0,0,0,0,0,0,0,0,0,0,0,0,0,0,0,
0,0,0,0,0,0,0,0,0,0,0,0,0,0,0,0,
0,0,0,0,0,0,0,0,0,0,0,0,0,0,0,0,
0,0,0,0,0,0,0,0,0,0,0,0,0,0,0,0,
0,0,0,0,0,0,0,0,0,0,0,0,0,0,0,0,
0,0,0,0,0,0,0,0,0,0,0,0,0,0,0,0,
0,0,0,0,0,0,0,0,0,0,0,0,0,0,0,0,
0,0,0,0,0,0,0,0,0,0,0,0,0,0,0,0,
0,0,0,0,0,0,0,0,0,0,0,0,0,0,0,0
</chunk>
   <chunk x="0" y="0" width="16" height="16">
132,2,132,2,132,2,132,2,132,3,386,386,1,3,897,899,
0,0,0,0,0,0,0,0,0,133,393,393,133,74,840,841,
0,0,0,0,0,0,0,0,0,0,0,0,0,0,0,0,
0,0,0,0,0,0,0,0,0,0,0,0,0,0,0,0,
0,0,0,0,0,0,0,0,0,0,0,0,0,0,0,0,
0,0,0,0,0,0,0,0,0,0,0,0,0,0,0,0,
0,0,0,0,0,0,0,0,0,0,0,0,0,0,0,0,
0,0,0,0,0,0,0,0,0,0,0,0,0,0,0,0,
0,0,0,0,0,0,0,0,0,0,0,0,0,0,0,0,
0,0,0,0,0,0,0,0,0,0,0,0,0,0,0,0,
0,0,0,0,0,0,0,0,0,0,0,0,0,0,0,0,
0,0,0,0,0,0,0,0,0,0,0,0,0,0,0,0,
0,0,0,0,0,0,0,0,0,0,0,0,0,0,0,0,
0,0,0,0,0,0,0,0,0,0,0,0,0,0,0,0,
0,0,0,0,0,0,0,0,0,0,0,0,0,0,0,0,
0,0,0,0,0,0,0,0,0,0,0,0,0,0,0,0
</chunk>
   <chunk x="16" y="0" width="16" height="16">
132,2,132,2,132,2,897,906,72,0,0,0,0,0,0,0,
841,66,66,66,66,66,66,842,72,0,0,0,0,0,0,0,
0,0,0,0,0,0,0,0,0,0,0,0,0,0,0,0,
0,0,0,0,0,0,0,0,0,0,0,0,0,0,0,0,
0,0,0,0,0,0,0,0,0,0,0,0,0,0,0,0,
0,0,0,0,0,0,0,0,0,0,0,0,0,0,0,0,
0,0,0,0,0,0,0,0,0,0,0,0,0,0,0,0,
0,0,0,0,0,0,0,0,0,0,0,0,0,0,0,0,
0,0,0,0,0,0,0,0,0,0,0,0,0,0,0,0,
0,0,0,0,0,0,0,0,0,0,0,0,0,0,0,0,
0,0,0,0,0,0,0,0,0,0,0,0,0,0,0,0,
0,0,0,0,0,0,0,0,0,0,0,0,0,0,0,0,
0,0,0,0,0,0,0,0,0,0,0,0,0,0,0,0,
0,0,0,0,0,0,0,0,0,0,0,0,0,0,0,0,
0,0,0,0,0,0,0,0,0,0,0,0,0,0,0,0,
0,0,0,0,0,0,0,0,0,0,0,0,0,0,0,0
</chunk>
   <chunk x="80" y="0" width="16" height="16">
0,0,0,0,0,0,0,0,67,0,0,0,0,0,0,0,
0,0,0,0,0,0,0,0,67,0,0,0,0,0,0,0,
0,0,0,0,0,0,0,0,67,0,0,0,0,0,0,0,
0,0,0,0,0,0,0,0,67,0,0,0,0,0,0,0,
0,0,0,0,0,0,0,0,67,0,0,0,0,0,0,0,
0,0,0,0,0,0,0,0,67,0,0,0,0,0,0,0,
0,0,0,0,0,0,0,0,67,0,0,0,0,0,0,0,
0,0,0,0,0,0,0,0,67,0,0,0,0,0,0,0,
0,0,0,0,0,0,0,0,67,0,0,0,0,0,0,0,
0,0,0,0,0,0,0,0,67,0,0,0,0,0,0,0,
0,0,0,0,0,0,0,0,67,0,0,0,0,0,0,0,
0,0,0,0,0,0,0,0,67,0,0,0,0,0,0,0,
0,0,0,0,0,0,0,0,67,0,0,0,0,0,0,0,
0,0,0,0,0,0,0,0,67,0,0,0,0,0,0,0,
0,0,0,0,0,0,0,0,68,132,2,132,2,132,2,132,
0,0,0,0,0,0,0,0,0,0,0,0,0,0,0,0
</chunk>
   <chunk x="96" y="0" width="16" height="16">
0,0,0,65,0,0,0,0,0,0,0,0,0,0,0,0,
0,0,0,65,0,0,0,0,0,0,0,0,0,0,0,0,
0,0,0,65,0,0,0,0,0,0,0,0,0,0,0,0,
0,0,0,65,0,0,0,0,0,0,0,0,0,0,0,0,
0,0,0,65,0,0,0,0,0,0,0,0,0,0,0,0,
0,0,0,65,0,0,0,0,0,0,0,0,0,0,0,0,
0,0,0,65,0,0,0,0,0,0,0,0,0,0,0,0,
0,0,0,65,0,0,0,0,0,0,0,0,0,0,0,0,
0,0,0,65,0,0,0,0,0,0,0,0,0,0,0,0,
0,0,0,65,0,0,0,0,0,0,0,0,0,0,0,0,
0,0,0,65,0,0,0,0,0,0,0,0,0,0,0,0,
0,0,0,65,0,0,0,0,0,0,0,0,0,0,0,0,
0,0,0,65,0,0,0,0,0,0,0,0,0,0,0,0,
0,0,0,65,0,0,0,0,0,0,0,0,0,0,0,0,
2,132,2,69,0,0,0,0,0,0,0,0,0,0,0,0,
0,0,0,0,0,0,0,0,0,0,0,0,0,0,0,0
</chunk>
  </data>
 </layer>
 <layer id="3" name="Platforms" width="30" height="20">
  <data encoding="csv">
   <chunk x="96" y="-64" width="16" height="16">
0,0,0,0,0,0,0,0,0,0,0,0,0,0,0,0,
0,0,0,0,0,0,0,0,0,0,0,0,0,0,0,0,
0,0,0,0,0,0,0,0,0,0,0,0,0,0,0,0,
0,0,0,0,0,0,0,0,0,0,0,0,0,0,0,0,
0,0,0,0,0,0,0,0,0,0,0,0,0,0,0,0,
0,0,0,0,0,0,0,0,193,194,193,194,0,0,0,0,
0,0,0,0,0,0,0,0,0,0,0,0,0,0,0,0,
0,0,0,0,0,0,0,0,0,0,0,0,0,0,0,0,
0,0,0,0,0,0,0,0,0,0,0,0,0,0,0,0,
0,0,0,0,0,0,0,0,0,0,0,0,0,0,0,0,
0,0,0,0,0,0,0,0,0,0,0,0,0,0,0,0,
0,0,0,0,0,0,0,0,0,0,0,0,0,0,0,0,
0,0,0,0,0,0,0,0,0,0,0,0,0,0,0,0,
0,0,0,0,0,0,0,0,0,0,0,0,0,0,0,0,
0,0,0,0,0,0,0,0,0,0,0,0,0,0,0,0,
0,0,0,0,0,0,0,0,0,0,0,0,0,0,0,0
</chunk>
   <chunk x="0" y="-48" width="16" height="16">
0,0,0,0,0,0,0,0,0,0,0,0,0,0,0,0,
0,0,0,0,0,0,0,0,0,0,0,0,0,0,0,0,
0,0,0,0,0,0,0,0,0,0,0,0,0,0,0,0,
0,0,0,0,0,0,0,0,0,0,0,0,0,0,0,0,
0,0,0,0,0,0,0,0,0,0,0,0,0,0,0,0,
0,0,0,0,0,0,0,0,0,0,0,0,0,0,0,0,
0,0,0,0,0,0,0,0,0,0,0,0,0,0,0,0,
0,0,0,0,0,0,0,0,0,0,0,0,0,0,0,0,
0,0,0,0,0,0,0,0,0,0,0,0,0,0,0,0,
0,0,0,0,0,0,0,0,0,0,0,0,0,0,0,0,
0,0,0,0,0,0,0,0,0,0,0,0,0,0,0,0,
0,0,0,0,0,0,0,0,0,0,0,0,0,0,0,0,
0,0,0,0,0,0,0,0,0,0,0,0,0,0,194,0,
0,0,0,0,0,0,0,0,0,0,0,0,0,0,0,0,
0,0,0,0,0,0,0,0,0,0,0,0,0,0,194,0,
0,0,0,0,0,0,0,0,0,0,0,0,0,0,0,0
</chunk>
   <chunk x="16" y="-48" width="16" height="16">
0,0,0,0,0,0,0,0,0,0,0,0,0,0,0,0,
0,0,0,0,0,0,0,0,0,0,0,0,0,0,0,0,
0,0,0,0,0,0,0,0,0,0,0,0,0,0,0,0,
0,0,0,0,0,0,0,0,0,0,0,0,0,0,0,0,
0,0,0,0,0,0,0,0,0,0,0,0,0,0,0,0,
0,0,0,0,0,0,0,0,0,0,0,0,0,0,0,0,
0,0,0,0,0,0,0,193,0,0,0,0,0,0,0,0,
0,0,0,0,0,0,0,0,0,0,0,0,0,193,194,193,
0,0,0,0,0,0,0,193,0,0,0,0,0,0,0,0,
0,0,0,0,0,0,0,0,0,0,0,0,0,0,0,0,
0,0,0,0,0,0,0,193,0,0,0,0,0,0,0,0,
0,0,0,0,0,0,0,0,0,0,0,0,0,0,0,0,
0,0,0,0,0,0,0,193,0,0,0,0,0,0,0,0,
0,0,0,0,0,0,0,0,0,0,0,0,0,0,0,0,
0,0,0,0,0,0,0,0,0,0,0,0,0,0,0,0,
0,0,0,0,0,0,0,0,0,0,0,0,0,0,0,0
</chunk>
   <chunk x="32" y="-48" width="16" height="16">
0,0,0,0,0,0,0,0,0,0,0,0,0,0,0,0,
0,0,0,0,0,0,0,0,0,0,0,0,0,0,0,0,
0,0,0,0,0,0,0,0,0,0,0,0,0,0,0,0,
0,0,0,0,0,0,0,0,0,0,0,0,0,0,0,0,
0,0,0,0,0,0,0,0,0,0,0,0,0,0,0,0,
0,0,0,0,0,0,0,0,0,0,0,0,0,0,0,0,
0,0,0,0,0,0,0,0,0,0,0,0,0,0,0,0,
194,0,0,0,0,0,0,0,193,194,0,0,0,0,0,0,
0,0,0,0,0,0,0,193,0,0,194,0,0,0,0,0,
0,0,0,0,0,0,0,0,0,0,0,0,0,0,0,0,
0,0,0,0,0,0,0,0,0,0,0,0,0,0,0,0,
0,0,0,0,0,0,0,0,0,0,0,0,0,0,0,0,
0,0,0,0,0,0,0,0,0,0,0,0,0,0,0,0,
0,0,0,0,0,0,0,0,0,0,0,0,0,0,0,0,
0,0,0,0,0,0,0,0,0,0,0,0,0,0,0,0,
0,0,0,0,0,0,0,0,0,0,0,0,0,0,0,0
</chunk>
   <chunk x="48" y="-48" width="16" height="16">
0,0,0,0,0,0,0,0,0,0,0,0,0,0,0,0,
0,0,0,0,0,0,0,0,0,0,0,0,0,0,0,0,
0,0,0,0,0,0,0,0,0,0,0,0,0,0,0,0,
0,0,0,0,0,0,0,0,0,0,0,0,0,0,0,0,
0,0,0,0,0,0,0,0,0,0,0,0,0,0,0,0,
0,0,0,0,0,0,0,0,0,0,0,0,0,0,0,0,
0,0,0,0,0,0,0,0,0,0,0,0,0,0,0,0,
0,0,0,0,0,0,0,0,0,0,0,0,0,0,0,193,
193,0,194,0,0,0,0,0,0,0,0,0,0,0,0,0,
0,0,0,0,0,0,0,0,0,0,0,0,0,0,0,0,
0,0,0,0,0,0,0,0,0,0,0,0,0,0,0,0,
0,0,0,0,0,0,0,0,0,0,0,0,0,0,0,0,
0,0,0,0,0,0,0,0,0,0,0,0,0,0,0,0,
0,0,0,0,0,0,0,0,0,0,0,0,0,0,0,0,
0,0,0,0,0,0,0,0,0,0,0,0,0,0,0,0,
0,0,0,0,0,0,0,0,0,0,0,0,0,0,0,0
</chunk>
   <chunk x="64" y="-48" width="16" height="16">
0,0,0,0,0,0,0,0,0,0,0,0,0,0,0,0,
0,0,0,0,0,0,0,0,0,0,0,0,0,0,0,0,
0,0,0,0,0,0,0,0,0,0,0,0,0,0,0,0,
0,0,0,0,0,0,0,0,0,0,0,0,0,0,0,0,
0,0,0,0,0,0,0,0,0,0,0,0,0,0,0,0,
0,0,0,0,0,0,0,0,0,0,0,0,0,0,0,0,
0,0,0,0,0,0,0,0,0,0,0,0,0,0,0,0,
194,193,194,0,0,0,0,0,0,0,0,0,0,0,0,0,
0,0,0,0,0,0,0,0,0,0,0,0,0,0,0,0,
0,0,0,0,0,0,0,0,0,0,0,0,0,0,0,0,
0,0,0,0,0,0,0,0,0,0,0,0,0,0,0,0,
0,0,0,0,0,0,0,0,0,0,0,0,0,0,0,0,
0,0,0,0,0,0,0,0,0,0,0,0,0,0,0,0,
0,0,0,0,0,0,0,0,0,0,0,0,0,0,0,0,
0,0,0,0,0,0,0,0,0,0,0,0,0,0,0,0,
0,0,0,0,0,0,0,0,0,0,0,0,0,0,0,0
</chunk>
   <chunk x="96" y="-48" width="16" height="16">
0,0,193,0,0,0,0,0,0,0,0,0,0,0,0,0,
0,0,0,0,0,0,0,0,0,0,0,0,0,0,0,0,
0,0,193,0,0,0,0,0,0,0,0,0,0,0,0,0,
0,0,0,0,0,0,0,0,0,0,0,0,0,0,0,0,
0,0,193,0,0,0,0,0,0,0,0,0,0,0,0,0,
0,0,0,0,0,0,0,0,0,0,0,0,0,0,0,0,
0,0,193,0,0,0,0,0,0,0,0,0,0,0,0,0,
0,0,0,0,0,0,0,0,0,0,0,0,0,0,0,0,
0,0,193,0,0,0,0,0,0,0,0,0,0,0,0,0,
0,0,0,0,0,0,0,0,0,0,0,0,0,0,0,0,
0,0,193,0,0,0,0,0,0,0,0,0,0,0,0,0,
0,0,0,0,0,0,0,0,0,0,0,0,0,0,0,0,
0,0,193,0,0,0,0,0,0,0,0,0,0,0,0,0,
0,0,0,0,0,0,0,0,0,0,0,0,0,0,0,0,
0,0,193,0,0,0,0,0,0,0,0,0,0,0,0,0,
0,0,0,0,0,0,0,0,0,0,0,0,0,0,0,0
</chunk>
   <chunk x="144" y="-48" width="16" height="16">
0,0,0,0,0,0,0,193,194,193,0,0,0,0,0,0,
0,0,0,0,0,0,0,0,0,0,0,0,0,0,0,0,
0,0,0,0,0,0,0,0,0,0,0,0,0,0,0,0,
0,0,0,0,0,0,0,0,0,0,0,0,0,0,0,0,
0,0,0,0,0,0,0,0,0,0,0,0,0,0,0,0,
0,0,0,0,0,0,0,0,0,0,0,0,0,0,0,0,
0,0,0,0,0,0,0,0,0,0,0,0,0,0,0,0,
0,0,0,0,0,0,0,0,0,0,0,0,0,0,0,0,
0,0,0,0,0,0,0,0,0,0,0,0,0,0,0,0,
0,0,0,0,0,0,0,0,0,0,0,0,0,0,0,0,
0,0,0,0,0,0,0,0,0,0,0,0,0,0,0,0,
0,0,0,0,0,0,0,0,0,0,0,0,0,0,0,0,
0,0,0,0,0,0,0,0,0,0,0,0,0,0,0,0,
0,0,0,0,0,0,0,0,0,0,0,0,0,0,0,0,
0,0,0,0,0,0,0,0,0,0,0,0,0,0,0,0,
0,0,0,0,0,0,0,0,0,0,0,0,0,0,0,0
</chunk>
   <chunk x="0" y="-32" width="16" height="16">
0,0,0,0,0,0,0,0,0,0,0,0,0,0,194,0,
0,0,0,0,0,0,0,0,0,0,0,0,0,0,0,0,
0,0,0,0,0,0,0,0,0,0,0,0,0,0,194,0,
0,0,0,0,0,0,0,0,0,0,0,0,0,0,0,0,
0,0,0,0,0,0,0,0,0,0,0,0,0,0,0,0,
0,0,0,0,0,0,0,0,0,0,0,0,0,0,0,0,
0,0,0,0,0,0,0,0,0,0,0,0,0,0,0,0,
0,0,0,0,0,0,0,0,0,0,0,0,0,0,0,0,
0,0,0,0,0,0,0,0,0,0,0,0,0,0,0,0,
0,0,0,0,0,0,0,0,0,0,0,0,0,0,0,0,
0,0,0,0,0,0,0,0,0,0,0,0,0,0,0,0,
0,0,0,0,0,0,0,0,0,0,0,0,0,0,0,0,
0,0,0,0,0,0,0,0,0,0,0,0,0,0,0,0,
0,0,0,0,0,0,0,0,0,0,0,0,0,0,0,0,
0,0,0,0,0,0,0,0,0,0,0,0,0,0,0,0,
0,0,0,0,0,0,0,0,0,0,0,0,0,0,0,0
</chunk>
   <chunk x="16" y="-32" width="16" height="16">
0,0,0,0,0,0,0,0,0,0,0,0,0,0,0,0,
0,0,0,0,0,0,0,0,0,0,0,0,0,0,0,0,
0,0,0,0,0,0,0,193,0,0,0,0,0,0,0,0,
0,0,0,0,0,0,0,0,0,0,0,0,0,0,0,0,
0,0,0,0,0,0,0,193,0,0,0,0,0,0,0,0,
0,0,0,0,0,0,0,0,0,0,0,0,0,0,0,0,
0,0,0,0,0,0,0,193,0,0,0,0,0,0,0,0,
0,0,0,0,0,0,0,0,0,0,0,0,0,0,0,0,
0,0,0,0,0,0,0,193,0,0,0,0,0,0,0,0,
0,0,0,0,0,0,0,0,0,0,0,0,0,0,0,0,
0,0,0,0,0,0,0,193,0,0,0,0,0,0,193,194,
0,0,0,0,0,0,0,0,0,0,0,0,0,0,0,0,
0,0,0,0,0,0,0,193,0,0,0,0,0,0,0,0,
0,0,0,0,0,0,0,0,0,0,0,0,0,0,0,0,
0,0,0,0,0,0,0,193,0,0,0,0,0,0,0,0,
0,0,0,0,0,0,0,0,0,0,0,0,0,0,0,0
</chunk>
   <chunk x="32" y="-32" width="16" height="16">
0,0,0,0,0,0,0,0,0,0,0,200,201,200,201,200,
0,0,0,0,0,0,0,0,0,0,0,0,0,0,0,0,
0,0,0,0,0,0,0,0,0,0,0,0,0,0,0,0,
0,0,0,0,0,0,0,0,0,0,0,0,0,0,0,0,
0,0,0,0,0,0,0,0,0,0,0,0,0,0,0,0,
0,0,0,0,0,0,0,0,0,0,0,0,0,0,0,0,
0,0,0,0,0,0,0,0,0,0,0,0,0,0,0,0,
0,0,0,0,0,0,0,0,0,0,0,0,0,0,0,0,
0,0,0,0,0,0,0,0,0,0,0,0,0,0,0,0,
0,0,0,0,0,0,0,0,0,0,0,0,0,0,0,0,
193,194,0,0,0,0,0,0,0,0,0,0,0,0,0,0,
0,0,0,0,0,0,0,0,0,0,0,0,0,0,0,0,
0,0,0,0,0,0,0,0,0,0,0,0,0,0,0,0,
0,0,0,0,0,0,0,0,0,0,0,0,0,0,0,0,
0,0,0,0,0,0,0,0,0,0,0,0,0,0,0,0,
0,0,0,0,0,0,0,0,0,0,0,0,0,0,0,0
</chunk>
   <chunk x="48" y="-32" width="16" height="16">
201,0,0,0,0,0,0,0,0,0,0,0,0,0,0,0,
0,0,0,0,0,0,0,0,0,0,0,0,0,0,0,0,
0,0,0,0,0,0,0,0,0,0,0,0,0,0,0,0,
0,0,0,0,0,0,0,0,0,0,0,0,0,0,0,0,
0,0,0,0,0,0,0,0,0,0,0,0,0,0,0,0,
0,0,0,0,0,0,0,0,0,0,0,0,0,0,0,0,
0,0,0,0,0,0,0,0,0,0,0,0,0,0,0,0,
0,0,0,0,0,0,0,0,0,0,0,0,0,0,0,0,
0,0,0,0,0,0,0,0,0,0,0,0,0,0,0,0,
0,0,0,0,0,0,0,0,0,0,0,0,0,0,0,0,
0,0,0,0,0,0,0,0,0,0,0,0,0,0,0,0,
0,0,0,0,0,0,0,0,0,0,0,0,0,0,0,0,
0,0,0,0,0,0,0,0,0,0,0,0,0,0,0,0,
0,0,0,0,0,0,0,0,0,0,0,0,0,0,0,0,
0,0,0,0,0,0,0,0,0,0,0,0,0,0,0,0,
0,0,0,0,0,0,0,0,0,0,0,0,0,0,0,0
</chunk>
   <chunk x="64" y="-32" width="16" height="16">
0,0,0,0,0,0,0,0,0,0,0,0,0,0,0,0,
0,0,0,0,0,0,0,0,0,0,0,0,0,0,0,0,
0,0,0,0,0,0,0,0,0,0,0,0,0,0,0,0,
0,0,0,0,0,0,0,0,0,0,0,0,0,0,0,0,
0,0,0,0,0,0,0,0,0,0,0,0,0,0,0,0,
0,0,0,0,0,0,0,0,0,0,0,0,0,0,0,0,
0,0,0,0,0,0,0,0,0,0,0,0,0,0,0,0,
0,0,0,0,0,0,0,0,0,0,0,0,0,0,0,0,
0,0,0,0,0,0,0,0,0,0,0,0,0,0,0,0,
0,0,0,0,0,0,0,0,0,0,0,0,0,0,0,0,
193,194,193,194,0,0,0,0,0,0,0,0,193,194,193,194,
0,0,0,0,0,0,0,0,0,0,0,0,0,0,0,0,
0,0,0,0,0,0,0,0,0,0,0,0,0,0,0,0,
0,0,0,0,0,0,0,0,0,0,0,0,0,0,0,0,
0,0,0,0,0,0,0,0,0,0,0,0,0,0,0,0,
0,0,0,0,0,0,0,0,0,0,0,0,0,0,0,0
</chunk>
   <chunk x="96" y="-32" width="16" height="16">
0,0,193,0,0,0,0,0,0,0,0,0,0,0,0,0,
0,0,0,0,0,0,0,0,0,0,0,0,0,0,0,0,
0,0,193,0,0,0,0,0,0,0,0,0,0,0,0,0,
0,0,0,0,0,0,0,0,0,0,0,0,0,0,0,0,
0,0,193,0,0,0,0,0,0,0,0,0,0,0,0,0,
0,0,0,0,0,0,0,0,0,0,0,0,0,0,0,0,
0,0,193,0,0,0,0,0,0,0,0,0,0,0,0,0,
0,0,0,0,0,0,0,0,0,0,0,0,0,0,0,0,
0,0,193,0,0,0,0,0,0,0,0,0,0,0,0,0,
0,0,0,0,0,0,0,0,0,0,0,0,0,0,0,0,
0,0,193,0,0,0,0,0,0,0,0,0,0,0,0,0,
0,0,0,0,0,0,0,0,0,0,0,0,0,0,0,0,
0,0,193,0,0,0,0,0,0,0,0,0,0,0,0,0,
0,0,0,0,0,0,0,0,0,0,0,0,0,0,0,0,
0,0,193,0,0,0,0,0,0,0,0,0,0,0,0,0,
0,0,0,0,0,0,0,0,0,0,0,0,0,0,0,0
</chunk>
   <chunk x="160" y="-32" width="16" height="16">
0,0,0,0,0,0,0,0,0,0,0,0,0,0,0,0,
0,0,0,0,0,0,0,0,193,194,193,194,193,194,0,0,
0,0,0,0,0,0,0,0,0,0,0,0,0,0,0,0,
0,0,0,0,0,0,0,0,0,0,0,0,0,0,0,0,
0,0,0,0,0,0,0,0,0,0,0,0,0,0,0,0,
0,0,0,0,0,0,0,0,0,0,0,0,0,0,0,0,
0,0,0,0,0,0,0,0,0,0,0,0,0,0,0,0,
0,0,0,0,0,0,0,0,0,0,0,0,0,0,0,0,
0,0,0,0,0,0,0,0,0,0,0,0,0,0,0,0,
0,0,0,0,0,0,0,0,0,0,0,0,0,0,0,0,
0,0,0,0,0,0,0,0,0,0,0,0,0,0,0,0,
0,0,0,0,0,0,0,0,0,0,0,0,0,0,0,0,
0,0,0,0,0,0,0,0,0,0,0,0,0,0,0,0,
0,0,0,0,0,0,0,0,0,0,0,0,0,0,0,0,
0,0,0,0,0,0,0,0,0,0,0,0,0,0,0,0,
0,0,0,0,0,0,0,0,0,0,0,0,0,0,0,0
</chunk>
   <chunk x="16" y="-16" width="16" height="16">
0,0,0,0,0,0,0,193,0,0,0,0,0,0,0,0,
0,0,0,0,0,0,0,0,0,0,0,0,0,0,0,0,
0,0,0,0,0,0,0,193,0,0,0,0,200,193,194,200,
0,0,0,0,0,0,0,0,0,0,0,0,0,0,0,0,
0,0,0,0,0,0,0,193,0,0,0,0,0,0,0,0,
0,0,0,0,0,0,0,0,0,0,0,0,0,0,0,0,
0,0,0,193,194,0,0,0,0,0,0,0,0,0,0,0,
193,194,0,0,0,0,0,0,0,0,0,0,0,0,0,0,
193,194,193,194,193,194,0,0,0,0,0,0,0,0,0,0,
0,0,0,0,0,0,0,0,0,0,0,0,0,0,0,0,
0,0,0,0,0,0,0,0,0,0,0,0,0,0,0,0,
0,0,0,0,0,0,0,0,0,0,0,0,0,0,0,0,
0,0,0,0,0,0,0,0,0,0,0,0,0,0,0,0,
0,0,0,0,0,0,0,0,0,0,0,0,0,0,0,0,
0,0,0,0,0,0,0,0,0,0,0,0,0,0,0,0,
0,0,0,0,0,0,0,0,0,0,0,0,0,0,0,0
</chunk>
   <chunk x="32" y="-16" width="16" height="16">
0,0,0,0,0,0,0,0,0,0,0,0,0,0,0,0,
0,0,0,0,0,0,0,0,0,0,0,0,0,0,0,0,
201,200,201,0,0,0,0,0,0,0,0,0,0,0,0,0,
0,0,0,0,0,0,0,0,0,0,0,0,0,0,0,0,
0,0,0,0,0,0,0,0,0,0,0,0,0,0,0,0,
0,0,0,0,0,0,0,0,0,0,0,0,0,0,0,0,
0,0,0,0,0,0,0,0,0,0,0,0,0,0,0,0,
0,0,0,0,0,0,0,0,0,0,0,0,0,0,0,0,
0,0,0,0,0,0,0,0,0,0,0,0,0,0,0,0,
0,0,0,0,0,0,0,0,0,0,0,0,0,0,0,0,
0,0,0,0,0,0,0,0,0,0,0,0,0,0,0,0,
0,0,0,0,0,0,0,0,0,0,0,0,0,0,0,0,
0,0,0,0,0,0,0,0,0,0,0,0,0,0,0,0,
0,0,0,0,0,0,0,0,0,0,0,0,0,0,0,0,
0,0,0,0,0,0,0,0,0,0,0,0,0,0,0,0,
0,0,0,0,0,0,0,0,0,0,0,0,0,0,0,0
</chunk>
   <chunk x="96" y="-16" width="16" height="16">
0,0,193,0,0,0,0,0,0,0,0,0,0,0,0,0,
0,0,0,0,0,0,0,0,0,0,0,0,0,0,0,0,
0,0,193,0,0,0,0,0,0,0,0,0,0,0,0,0,
0,0,0,0,0,0,0,0,0,0,0,0,0,0,0,0,
0,0,193,0,0,0,0,0,0,0,0,0,0,0,0,0,
0,0,0,0,0,0,0,0,0,0,0,0,0,0,0,0,
0,0,193,0,0,0,0,0,0,0,0,0,0,0,0,0,
0,0,0,0,0,0,0,0,0,0,0,0,0,0,0,0,
0,0,193,0,0,0,0,0,0,0,0,0,0,0,0,0,
0,0,0,0,0,0,0,0,0,0,0,0,0,0,0,0,
0,0,193,0,0,0,0,0,0,0,0,0,0,0,0,0,
0,0,0,0,0,0,0,0,0,0,0,0,0,0,0,0,
0,0,193,0,0,0,0,0,0,0,0,0,0,0,0,0,
0,0,0,0,0,0,0,0,0,0,0,0,0,0,0,0,
0,0,193,0,0,0,0,0,0,0,0,0,0,0,0,0,
0,0,0,0,0,0,0,0,0,0,0,0,0,0,0,0
</chunk>
   <chunk x="96" y="0" width="16" height="16">
0,0,193,0,0,0,0,0,0,0,0,0,0,0,0,0,
0,0,0,0,0,0,0,0,0,0,0,0,0,0,0,0,
0,0,193,0,0,0,0,0,0,0,0,0,0,0,0,0,
0,0,0,0,0,0,0,0,0,0,0,0,0,0,0,0,
0,0,193,0,0,0,0,0,0,0,0,0,0,0,0,0,
0,0,0,0,0,0,0,0,0,0,0,0,0,0,0,0,
0,0,193,0,0,0,0,0,0,0,0,0,0,0,0,0,
0,0,0,0,0,0,0,0,0,0,0,0,0,0,0,0,
0,0,193,0,0,0,0,0,0,0,0,0,0,0,0,0,
0,0,0,0,0,0,0,0,0,0,0,0,0,0,0,0,
0,0,193,0,0,0,0,0,0,0,0,0,0,0,0,0,
0,0,0,0,0,0,0,0,0,0,0,0,0,0,0,0,
0,0,193,0,0,0,0,0,0,0,0,0,0,0,0,0,
0,0,0,0,0,0,0,0,0,0,0,0,0,0,0,0,
0,0,0,0,0,0,0,0,0,0,0,0,0,0,0,0,
0,0,0,0,0,0,0,0,0,0,0,0,0,0,0,0
</chunk>
  </data>
 </layer>
 <objectgroup id="4" name="Objects" locked="1">
  <object id="4" name="playerSpawn" x="-32" y="-8">
   <point/>
  </object>
  <object id="7" name="doorSpawn" x="72" y="0">
   <point/>
  </object>
  <object id="9" name="doorSpawn" x="104" y="0">
   <point/>
  </object>
  <object id="11" name="doorSpawn" x="568" y="-240">
   <point/>
  </object>
  <object id="12" name="enemySpawn" x="248" y="-240">
   <properties>
    <property name="aggroGroup" type="int" value="0"/>
    <property name="approachPlayer" type="bool" value="true"/>
    <property name="direction" type="int" value="1"/>
    <property name="flipWhileIdle" type="bool" value="false"/>
   </properties>
   <point/>
  </object>
  <object id="14" name="corpseSpawn" x="160" y="-24">
   <point/>
  </object>
  <object id="16" name="enemySpawn" x="288" y="-64">
   <properties>
    <property name="aggroGroup" type="int" value="1"/>
    <property name="approachPlayer" type="bool" value="true"/>
    <property name="direction" type="int" value="-1"/>
    <property name="flipWhileIdle" type="bool" value="false"/>
   </properties>
   <point/>
  </object>
  <object id="17" name="enemySpawn" x="416" y="-64">
   <properties>
    <property name="aggroGroup" type="int" value="1"/>
    <property name="approachPlayer" type="bool" value="true"/>
    <property name="direction" type="int" value="1"/>
    <property name="flipWhileIdle" type="bool" value="true"/>
   </properties>
   <point/>
  </object>
  <object id="18" name="enemySpawn" x="472" y="-64">
   <properties>
    <property name="aggroGroup" type="int" value="1"/>
    <property name="approachPlayer" type="bool" value="true"/>
    <property name="direction" type="int" value="1"/>
    <property name="flipWhileIdle" type="bool" value="true"/>
   </properties>
   <point/>
  </object>
  <object id="19" name="doorSpawn" x="576" y="-64">
   <point/>
  </object>
  <object id="41" name="doorSpawn" x="800" y="-384">
   <point/>
  </object>
  <object id="42" name="doorSpawn" x="704" y="-64">
   <point/>
  </object>
  <object id="43" name="doorSpawn" x="672" y="-64">
   <point/>
  </object>
  <object id="44" name="enemySpawn" x="848" y="-384">
   <properties>
    <property name="aggroGroup" type="int" value="2"/>
    <property name="approachPlayer" type="bool" value="true"/>
    <property name="direction" type="int" value="1"/>
    <property name="flipWhileIdle" type="bool" value="false"/>
   </properties>
   <point/>
  </object>
  <object id="45" name="enemySpawn" x="1024" y="-384">
   <properties>
    <property name="aggroGroup" type="int" value="2"/>
    <property name="approachPlayer" type="bool" value="true"/>
    <property name="direction" type="int" value="1"/>
    <property name="flipWhileIdle" type="bool" value="true"/>
   </properties>
   <point/>
  </object>
  <object id="46" name="enemySpawn" x="1000" y="-384">
   <properties>
    <property name="aggroGroup" type="int" value="2"/>
    <property name="approachPlayer" type="bool" value="true"/>
    <property name="direction" type="int" value="1"/>
    <property name="flipWhileIdle" type="bool" value="true"/>
   </properties>
   <point/>
  </object>
  <object id="47" name="enemySpawn" x="1096" y="-384">
   <properties>
    <property name="aggroGroup" type="int" value="2"/>
    <property name="approachPlayer" type="bool" value="true"/>
    <property name="direction" type="int" value="1"/>
    <property name="flipWhileIdle" type="bool" value="true"/>
   </properties>
   <point/>
  </object>
  <object id="48" name="doorSpawn" x="1168" y="-384">
   <point/>
  </object>
  <object id="49" name="doorSpawn" x="1200" y="-384">
   <point/>
  </object>
  <object id="50" name="levelEnd" x="1368" y="-184">
   <point/>
  </object>
 </objectgroup>
</map>
